(G-CODE GENERATED BY FLATCAM v8.994 - www.flatcam.org - Version Date: 2020/11/7)

(Name: Cortinas Eletricas-CuBottom.gbr_iso_combined_cnc)
(Type: G-code from Geometry)
(Units: MM)

(Created on Thursday, 20 October 2022 at 19:43)

(This preprocessor is the default preprocessor used by FlatCAM.)
(It is made to work with MACH3 compatible motion controllers.)

(TOOL DIAMETER: 0.1 mm)
(Feedrate_XY: 120.0 mm/min)
(Feedrate_Z: 60.0 mm/min)
(Feedrate rapids 1500.0 mm/min)

(Z_Cut: -0.0 mm)
(Z_Move: 2.0 mm)
(Z Start: None mm)
(Z End: 15.0 mm)
(X,Y End: None mm)
(Steps per circle: 64)
(Preprocessor Geometry: default)

(X range:    4.9977 ...  106.0051  mm)
(Y range:    1.0475 ...   72.2887  mm)

(Spindle Speed: 0.0 RPM)
G21
G90
G94

G01 F120.00

M5
G00 Z15.0000
G00 X0.0000 Y0.0000
T1
M6    
(MSG, Change to Tool Dia = 0.1000)
M0
G00 Z15.0000

M03
G01 F120.00
G00 X6.1581 Y5.0806
G01 F60.00
G01 Z-0.0000
G01 F120.00
G01 X6.1866 Y4.8091
G01 X6.2529 Y4.5433
G01 X6.3555 Y4.2894
G01 X6.4925 Y4.0521
G01 X6.6611 Y3.8363
G01 X6.8581 Y3.6460
G01 X7.0797 Y3.4850
G01 X7.3215 Y3.3565
G01 X7.5789 Y3.2628
G01 X7.8468 Y3.2058
G01 X8.0517 Y3.1915
G01 X8.2570 Y3.1915
G01 X8.5283 Y3.2296
G01 X8.7916 Y3.3051
G01 X9.0418 Y3.4165
G01 X9.2741 Y3.5617
G01 X9.4839 Y3.7377
G01 X9.6666 Y3.9406
G01 X9.8203 Y4.1684
G01 X9.9404 Y4.4145
G01 X10.0250 Y4.6750
G01 X10.0725 Y4.9439
G01 X10.0822 Y5.2185
G01 X10.0535 Y5.4909
G01 X9.9873 Y5.7567
G01 X9.8847 Y6.0106
G01 X9.7477 Y6.2479
G01 X9.5791 Y6.4637
G01 X9.3821 Y6.6540
G01 X9.1605 Y6.8150
G01 X8.9186 Y6.9435
G01 X8.6612 Y7.0372
G01 X8.3933 Y7.0942
G01 X8.1885 Y7.1085
G01 X7.9831 Y7.1085
G01 X7.7119 Y7.0704
G01 X7.4486 Y6.9949
G01 X7.1984 Y6.8835
G01 X6.9661 Y6.7383
G01 X6.7563 Y6.5623
G01 X6.5730 Y6.3587
G01 X6.4198 Y6.1316
G01 X6.3005 Y5.8870
G01 X6.2151 Y5.6250
G01 X6.1676 Y5.3552
G01 X6.1581 Y5.0806
G00 Z2.0000
G00 X8.2993 Y23.6337
G01 F60.00
G01 Z-0.0000
G01 F120.00
G01 X8.3130 Y23.5410
G01 X8.3341 Y23.4573
G01 X8.3650 Y23.3714
G01 X8.4019 Y23.2934
G01 X8.4476 Y23.2172
G01 X8.5005 Y23.1459
G01 X8.5593 Y23.0809
G01 X8.6279 Y23.0189
G01 X8.6973 Y22.9675
G01 X8.7735 Y22.9219
G01 X8.8538 Y22.8839
G01 X8.9350 Y22.8547
G01 X9.0211 Y22.8329
G01 X9.0271 Y22.8318
G01 X9.5297 Y22.3292
G01 X9.5297 Y20.3623
G01 X9.4237 Y20.2836
G01 X9.3255 Y20.1946
G01 X9.2365 Y20.0964
G01 X9.1590 Y19.9920
G01 X9.0884 Y19.8742
G01 X9.0328 Y19.7566
G01 X8.9882 Y19.6319
G01 X8.9560 Y19.5034
G01 X8.9366 Y19.3723
G01 X8.9301 Y19.2400
G01 X8.9364 Y19.1101
G01 X8.9566 Y18.9742
G01 X8.9882 Y18.8481
G01 X9.0333 Y18.7223
G01 X9.0895 Y18.6036
G01 X9.1576 Y18.4900
G01 X9.2366 Y18.3835
G01 X9.3255 Y18.2854
G01 X9.4237 Y18.1964
G01 X9.5301 Y18.1175
G01 X9.6437 Y18.0494
G01 X9.7635 Y17.9928
G01 X9.8883 Y17.9481
G01 X10.0167 Y17.9159
G01 X10.1478 Y17.8965
G01 X10.2801 Y17.8900
G01 X10.4124 Y17.8965
G01 X10.5435 Y17.9159
G01 X10.6720 Y17.9481
G01 X10.7978 Y17.9932
G01 X10.9165 Y18.0494
G01 X11.0280 Y18.1162
G01 X11.1366 Y18.1965
G01 X11.2347 Y18.2854
G01 X11.3220 Y18.3817
G01 X11.4026 Y18.4900
G01 X11.4707 Y18.6036
G01 X11.5263 Y18.7211
G01 X11.5720 Y18.8482
G01 X11.6046 Y18.9790
G01 X11.6236 Y19.1077
G01 X11.6301 Y19.2388
G01 X11.6236 Y19.3723
G01 X11.6036 Y19.5058
G01 X11.5720 Y19.6319
G01 X11.5282 Y19.7543
G01 X11.4707 Y19.8764
G01 X11.4026 Y19.9900
G01 X11.3220 Y20.0983
G01 X11.2347 Y20.1946
G01 X11.1384 Y20.2820
G01 X11.0304 Y20.3623
G01 X11.0304 Y22.6412
G01 X11.0268 Y22.7135
G01 X11.0160 Y22.7864
G01 X10.9981 Y22.8578
G01 X10.9728 Y22.9283
G01 X10.9418 Y22.9937
G01 X10.9040 Y23.0569
G01 X10.8601 Y23.1161
G01 X10.8124 Y23.1688
G01 X10.0883 Y23.8929
G01 X10.0872 Y23.8990
G01 X10.0653 Y23.9850
G01 X10.0362 Y24.0663
G01 X9.9982 Y24.1467
G01 X9.9512 Y24.2248
G01 X9.8997 Y24.2941
G01 X9.8417 Y24.3582
G01 X9.7742 Y24.4196
G01 X9.7008 Y24.4738
G01 X9.6267 Y24.5181
G01 X9.5487 Y24.5551
G01 X9.4616 Y24.5864
G01 X9.3742 Y24.6080
G01 X9.2888 Y24.6206
G01 X9.2025 Y24.6249
G01 X9.1114 Y24.6206
G01 X9.0235 Y24.6076
G01 X8.9350 Y24.5853
G01 X8.8538 Y24.5561
G01 X8.7757 Y24.5192
G01 X8.6973 Y24.4725
G01 X8.6259 Y24.4195
G01 X8.5585 Y24.3582
G01 X8.5005 Y24.2941
G01 X8.4490 Y24.2248
G01 X8.4019 Y24.1466
G01 X8.3640 Y24.0663
G01 X8.3341 Y23.9827
G01 X8.3121 Y23.8941
G01 X8.2994 Y23.8087
G01 X8.2951 Y23.7225
G01 X8.2993 Y23.6337
G00 Z2.0000
G00 X6.1897 Y24.5506
G01 F60.00
G01 Z-0.0000
G01 F120.00
G01 X6.1897 Y15.6200
G01 X6.1933 Y15.5465
G01 X6.2044 Y15.4724
G01 X6.2228 Y15.3999
G01 X6.2469 Y15.3329
G01 X6.2772 Y15.2685
G01 X6.3162 Y15.2031
G01 X6.3617 Y15.1421
G01 X6.4095 Y15.0894
G01 X7.7895 Y13.7094
G01 X7.8450 Y13.6592
G01 X7.9053 Y13.6148
G01 X7.9664 Y13.5783
G01 X8.0307 Y13.5478
G01 X8.1023 Y13.5220
G01 X8.1761 Y13.5036
G01 X8.2465 Y13.4933
G01 X8.3189 Y13.4897
G01 X8.9301 Y13.4896
G01 X8.9301 Y12.9388
G01 X8.9313 Y12.9290
G01 X8.9339 Y12.9209
G01 X8.9385 Y12.9122
G01 X8.9447 Y12.9046
G01 X8.9523 Y12.8984
G01 X8.9610 Y12.8938
G01 X8.9691 Y12.8912
G01 X8.9789 Y12.8900
G01 X9.5297 Y12.8900
G01 X9.5298 Y10.2375
G01 X9.5333 Y10.1665
G01 X9.5437 Y10.0960
G01 X9.5620 Y10.0222
G01 X9.5878 Y9.9506
G01 X9.6183 Y9.8863
G01 X9.6562 Y9.8232
G01 X9.7001 Y9.7640
G01 X9.7495 Y9.7094
G01 X15.3495 Y4.1094
G01 X15.4060 Y4.0585
G01 X15.4632 Y4.0161
G01 X15.5242 Y3.9795
G01 X15.5929 Y3.9468
G01 X15.6646 Y3.9213
G01 X15.7337 Y3.9041
G01 X15.8041 Y3.8936
G01 X15.8789 Y3.8897
G01 X18.2651 Y3.8896
G01 X18.2651 Y3.7938
G01 X18.2658 Y3.7865
G01 X18.2676 Y3.7793
G01 X18.2704 Y3.7725
G01 X18.2742 Y3.7662
G01 X18.2797 Y3.7596
G01 X18.2853 Y3.7548
G01 X18.2915 Y3.7509
G01 X18.2982 Y3.7479
G01 X18.3053 Y3.7460
G01 X18.3126 Y3.7451
G01 X19.9651 Y3.7450
G01 X19.9724 Y3.7455
G01 X19.9796 Y3.7472
G01 X19.9865 Y3.7498
G01 X19.9929 Y3.7534
G01 X19.9977 Y3.7571
G01 X20.0021 Y3.7614
G01 X20.0060 Y3.7662
G01 X20.0092 Y3.7714
G01 X20.0117 Y3.7770
G01 X20.0136 Y3.7829
G01 X20.0147 Y3.7889
G01 X20.0151 Y3.7950
G01 X20.0151 Y5.4450
G01 X20.0148 Y5.4499
G01 X20.0139 Y5.4560
G01 X20.0122 Y5.4618
G01 X20.0097 Y5.4675
G01 X20.0073 Y5.4717
G01 X20.0037 Y5.4767
G01 X19.9996 Y5.4812
G01 X19.9949 Y5.4852
G01 X19.9887 Y5.4891
G01 X19.9808 Y5.4925
G01 X19.9736 Y5.4943
G01 X19.9651 Y5.4950
G01 X18.3139 Y5.4950
G01 X18.3065 Y5.4943
G01 X18.2994 Y5.4925
G01 X18.2926 Y5.4897
G01 X18.2873 Y5.4866
G01 X18.2824 Y5.4829
G01 X18.2772 Y5.4777
G01 X18.2728 Y5.4717
G01 X18.2699 Y5.4664
G01 X18.2669 Y5.4583
G01 X18.2652 Y5.4487
G01 X18.2651 Y5.3904
G01 X16.1909 Y5.3904
G01 X11.0304 Y10.5508
G01 X11.0304 Y12.8900
G01 X11.5838 Y12.8901
G01 X11.5922 Y12.8915
G01 X11.6003 Y12.8943
G01 X11.6079 Y12.8984
G01 X11.6146 Y12.9038
G01 X11.6202 Y12.9102
G01 X11.6247 Y12.9175
G01 X11.6279 Y12.9255
G01 X11.6297 Y12.9339
G01 X11.6301 Y12.9400
G01 X11.6301 Y15.5400
G01 X11.6291 Y15.5498
G01 X11.6263 Y15.5591
G01 X11.6217 Y15.5678
G01 X11.6154 Y15.5754
G01 X11.6079 Y15.5816
G01 X11.5992 Y15.5862
G01 X11.5898 Y15.5890
G01 X11.5801 Y15.5900
G01 X8.9801 Y15.5900
G01 X8.9703 Y15.5890
G01 X8.9632 Y15.5871
G01 X8.9554 Y15.5835
G01 X8.9484 Y15.5787
G01 X8.9422 Y15.5727
G01 X8.9378 Y15.5667
G01 X8.9339 Y15.5591
G01 X8.9313 Y15.5510
G01 X8.9302 Y15.5437
G01 X8.9301 Y14.9904
G01 X8.6309 Y14.9904
G01 X7.6904 Y15.9308
G01 X7.6904 Y24.5494
G01 X7.7500 Y63.6087
G01 X14.3509 Y70.2096
G01 X17.1306 Y70.2097
G01 X30.6895 Y70.2194
G01 X33.7722 Y67.1367
G01 X33.7722 Y56.4277
G01 X33.6615 Y56.3613
G01 X33.5412 Y56.2722
G01 X33.4266 Y56.1685
G01 X33.3229 Y56.0539
G01 X33.2338 Y55.9336
G01 X33.1568 Y55.8053
G01 X33.0906 Y55.6657
G01 X33.0387 Y55.5201
G01 X33.0024 Y55.3749
G01 X32.9803 Y55.2269
G01 X32.9726 Y55.0725
G01 X32.9803 Y54.9181
G01 X33.0024 Y54.7701
G01 X33.0387 Y54.6249
G01 X33.0906 Y54.4793
G01 X33.1568 Y54.3397
G01 X33.2338 Y54.2114
G01 X33.3229 Y54.0911
G01 X33.4266 Y53.9765
G01 X33.5412 Y53.8728
G01 X33.6615 Y53.7837
G01 X33.7722 Y53.7173
G01 X33.7722 Y52.3633
G01 X31.2893 Y49.8804
G01 X16.5009 Y49.8804
G01 X14.1829 Y52.1983
G01 X14.1829 Y53.5625
G01 X14.9350 Y53.5626
G01 X14.9435 Y53.5637
G01 X14.9517 Y53.5663
G01 X14.9593 Y53.5703
G01 X14.9662 Y53.5755
G01 X14.9720 Y53.5817
G01 X14.9767 Y53.5889
G01 X14.9797 Y53.5957
G01 X14.9818 Y53.6040
G01 X14.9826 Y53.6125
G01 X14.9826 Y56.6125
G01 X14.9820 Y56.6198
G01 X14.9804 Y56.6270
G01 X14.9778 Y56.6339
G01 X14.9742 Y56.6403
G01 X14.9704 Y56.6452
G01 X14.9662 Y56.6495
G01 X14.9614 Y56.6534
G01 X14.9562 Y56.6566
G01 X14.9506 Y56.6591
G01 X14.9447 Y56.6610
G01 X14.9387 Y56.6621
G01 X14.9326 Y56.6625
G01 X11.9326 Y56.6625
G01 X11.9265 Y56.6621
G01 X11.9216 Y56.6613
G01 X11.9157 Y56.6596
G01 X11.9101 Y56.6572
G01 X11.9048 Y56.6541
G01 X11.8990 Y56.6495
G01 X11.8939 Y56.6442
G01 X11.8903 Y56.6392
G01 X11.8869 Y56.6328
G01 X11.8844 Y56.6258
G01 X11.8830 Y56.6186
G01 X11.8826 Y56.6125
G01 X11.8826 Y53.6125
G01 X11.8833 Y53.6040
G01 X11.8855 Y53.5957
G01 X11.8891 Y53.5879
G01 X11.8939 Y53.5808
G01 X11.8999 Y53.5746
G01 X11.9069 Y53.5696
G01 X11.9146 Y53.5659
G01 X11.9216 Y53.5637
G01 X11.9301 Y53.5626
G01 X12.6822 Y53.5625
G01 X12.6823 Y51.8850
G01 X12.6861 Y51.8115
G01 X12.6967 Y51.7411
G01 X12.7139 Y51.6721
G01 X12.7394 Y51.6004
G01 X12.7703 Y51.5349
G01 X12.8101 Y51.4686
G01 X12.8526 Y51.4115
G01 X12.9020 Y51.3569
G01 X15.6604 Y48.5986
G01 X15.7160 Y48.5485
G01 X15.7732 Y48.5061
G01 X15.8342 Y48.4695
G01 X15.9029 Y48.4368
G01 X15.9746 Y48.4113
G01 X16.0437 Y48.3941
G01 X16.1141 Y48.3836
G01 X16.1901 Y48.3796
G01 X31.6001 Y48.3796
G01 X31.6761 Y48.3836
G01 X31.7465 Y48.3941
G01 X31.8179 Y48.4120
G01 X31.8895 Y48.4378
G01 X31.9538 Y48.4683
G01 X32.0169 Y48.5061
G01 X32.0761 Y48.5500
G01 X32.1307 Y48.5994
G01 X35.0532 Y51.5219
G01 X35.1026 Y51.5765
G01 X35.1465 Y51.6356
G01 X35.1854 Y51.7010
G01 X35.2158 Y51.7654
G01 X35.2399 Y51.8324
G01 X35.2585 Y51.9061
G01 X35.2695 Y51.9814
G01 X35.2729 Y52.0525
G01 X35.2729 Y53.7173
G01 X35.3837 Y53.7837
G01 X35.5059 Y53.8743
G01 X35.6186 Y53.9765
G01 X35.7208 Y54.0892
G01 X35.8114 Y54.2114
G01 X35.8896 Y54.3418
G01 X35.9546 Y54.4793
G01 X36.0065 Y54.6249
G01 X36.0428 Y54.7701
G01 X36.0651 Y54.9206
G01 X36.0726 Y55.0725
G01 X36.0653 Y55.2220
G01 X36.0423 Y55.3773
G01 X36.0058 Y55.5224
G01 X35.9546 Y55.6657
G01 X35.8896 Y55.8032
G01 X35.8127 Y55.9316
G01 X35.7191 Y56.0577
G01 X35.6186 Y56.1685
G01 X35.5059 Y56.2707
G01 X35.3837 Y56.3613
G01 X35.2729 Y56.4277
G01 X35.2729 Y61.3071
G01 X44.6518 Y61.3071
G01 X46.4797 Y59.4792
G01 X46.4797 Y55.5338
G01 X46.4833 Y55.4615
G01 X46.4937 Y55.3910
G01 X46.5120 Y55.3172
G01 X46.5369 Y55.2479
G01 X46.5672 Y55.1835
G01 X46.6069 Y55.1171
G01 X46.6501 Y55.0590
G01 X46.6995 Y55.0044
G01 X49.1737 Y52.5302
G01 X49.1424 Y52.4049
G01 X49.1203 Y52.2569
G01 X49.1126 Y52.1025
G01 X49.1203 Y51.9481
G01 X49.1424 Y51.8001
G01 X49.1793 Y51.6526
G01 X49.2316 Y51.5071
G01 X49.2956 Y51.3718
G01 X49.3738 Y51.2414
G01 X49.4644 Y51.1192
G01 X49.5649 Y51.0083
G01 X49.6802 Y50.9036
G01 X49.8015 Y50.8137
G01 X49.9319 Y50.7355
G01 X50.0694 Y50.6705
G01 X50.2126 Y50.6192
G01 X50.3602 Y50.5823
G01 X50.5107 Y50.5600
G01 X50.6626 Y50.5525
G01 X50.8121 Y50.5598
G01 X50.9674 Y50.5828
G01 X51.1125 Y50.6192
G01 X51.2580 Y50.6715
G01 X51.3932 Y50.7355
G01 X51.5237 Y50.8137
G01 X51.6459 Y50.9043
G01 X51.7577 Y51.0056
G01 X51.8623 Y51.1211
G01 X51.9514 Y51.2414
G01 X52.0296 Y51.3718
G01 X52.0946 Y51.5093
G01 X52.1451 Y51.6502
G01 X52.1832 Y51.8025
G01 X52.2051 Y51.9506
G01 X52.2126 Y52.1025
G01 X52.2051 Y52.2544
G01 X52.1832 Y52.4025
G01 X52.1451 Y52.5548
G01 X52.0946 Y52.6957
G01 X52.0296 Y52.8332
G01 X51.9514 Y52.9636
G01 X51.8623 Y53.0839
G01 X51.7568 Y53.2002
G01 X51.6459 Y53.3007
G01 X51.5237 Y53.3913
G01 X51.3932 Y53.4695
G01 X51.2557 Y53.5345
G01 X51.1125 Y53.5858
G01 X50.9674 Y53.6222
G01 X50.8121 Y53.6452
G01 X50.6626 Y53.6525
G01 X50.5107 Y53.6450
G01 X50.3601 Y53.6227
G01 X50.2349 Y53.5914
G01 X47.9804 Y55.8458
G01 X47.9804 Y59.7912
G01 X47.9768 Y59.8635
G01 X47.9660 Y59.9364
G01 X47.9481 Y60.0078
G01 X47.9238 Y60.0760
G01 X47.8918 Y60.1437
G01 X47.8540 Y60.2069
G01 X47.8101 Y60.2661
G01 X47.7607 Y60.3206
G01 X45.4932 Y62.5881
G01 X45.4386 Y62.6375
G01 X45.3805 Y62.6807
G01 X45.3141 Y62.7204
G01 X45.2497 Y62.7507
G01 X45.1804 Y62.7755
G01 X45.1066 Y62.7939
G01 X45.0361 Y62.8042
G01 X44.9638 Y62.8078
G01 X35.2729 Y62.8079
G01 X35.2729 Y66.6971
G01 X35.3488 Y66.6972
G01 X35.4211 Y66.7008
G01 X35.4940 Y66.7116
G01 X35.5654 Y66.7295
G01 X35.6347 Y66.7543
G01 X35.7013 Y66.7858
G01 X35.7644 Y66.8236
G01 X35.8255 Y66.8691
G01 X35.8782 Y66.9169
G01 X38.9009 Y69.9396
G01 X67.0693 Y69.9396
G01 X77.8497 Y59.1592
G01 X77.8497 Y55.1700
G01 X77.8533 Y55.0965
G01 X77.8637 Y55.0260
G01 X77.8824 Y54.9510
G01 X77.9069 Y54.8829
G01 X77.9395 Y54.8142
G01 X77.9762 Y54.7531
G01 X78.0185 Y54.6959
G01 X78.0687 Y54.6403
G01 X80.1212 Y52.5877
G01 X80.0899 Y52.4624
G01 X80.0678 Y52.3144
G01 X80.0601 Y52.1600
G01 X80.0678 Y52.0056
G01 X80.0899 Y51.8576
G01 X80.1262 Y51.7124
G01 X80.1781 Y51.5668
G01 X80.2443 Y51.4272
G01 X80.3213 Y51.2989
G01 X80.4104 Y51.1786
G01 X80.5132 Y51.0649
G01 X80.6268 Y50.9618
G01 X80.7469 Y50.8726
G01 X80.8816 Y50.7919
G01 X81.0169 Y50.7280
G01 X81.1601 Y50.6767
G01 X81.3077 Y50.6398
G01 X81.4582 Y50.6175
G01 X81.6101 Y50.6100
G01 X81.7596 Y50.6173
G01 X81.9149 Y50.6403
G01 X82.0600 Y50.6767
G01 X82.2032 Y50.7280
G01 X82.3407 Y50.7930
G01 X82.4712 Y50.8712
G01 X82.5934 Y50.9618
G01 X82.7043 Y51.0623
G01 X82.8098 Y51.1786
G01 X82.8989 Y51.2989
G01 X82.9771 Y51.4293
G01 X83.0421 Y51.5668
G01 X83.0933 Y51.7101
G01 X83.1303 Y51.8576
G01 X83.1523 Y52.0056
G01 X83.1600 Y52.1625
G01 X83.1526 Y52.3119
G01 X83.1303 Y52.4625
G01 X83.0933 Y52.6099
G01 X83.0430 Y52.7509
G01 X82.9771 Y52.8907
G01 X82.8989 Y53.0211
G01 X82.8083 Y53.1433
G01 X82.7078 Y53.2542
G01 X82.5934 Y53.3582
G01 X82.4732 Y53.4474
G01 X82.3386 Y53.5281
G01 X82.2032 Y53.5920
G01 X82.0600 Y53.6433
G01 X81.9125 Y53.6802
G01 X81.7620 Y53.7025
G01 X81.6101 Y53.7100
G01 X81.4582 Y53.7025
G01 X81.3076 Y53.6802
G01 X81.1824 Y53.6489
G01 X79.3504 Y55.4808
G01 X79.3504 Y59.4725
G01 X79.3468 Y59.5435
G01 X79.3360 Y59.6164
G01 X79.3181 Y59.6878
G01 X79.2942 Y59.7549
G01 X79.2606 Y59.8258
G01 X79.2240 Y59.8869
G01 X79.1801 Y59.9461
G01 X79.1307 Y60.0006
G01 X67.9107 Y71.2206
G01 X67.8542 Y71.2715
G01 X67.7970 Y71.3139
G01 X67.7359 Y71.3505
G01 X67.6672 Y71.3832
G01 X67.5967 Y71.4084
G01 X67.5265 Y71.4259
G01 X67.4561 Y71.4364
G01 X67.3801 Y71.4404
G01 X38.5901 Y71.4404
G01 X38.5165 Y71.4367
G01 X38.4437 Y71.4259
G01 X38.3746 Y71.4087
G01 X38.3029 Y71.3832
G01 X38.2364 Y71.3517
G01 X38.1753 Y71.3152
G01 X38.1131 Y71.2692
G01 X38.0595 Y71.2206
G01 X35.0368 Y68.1979
G01 X34.8334 Y68.1979
G01 X31.5294 Y71.5018
G01 X31.4761 Y71.5500
G01 X31.4190 Y71.5925
G01 X31.4144 Y71.5955
G01 X31.3533 Y71.6320
G01 X31.2872 Y71.6632
G01 X31.2202 Y71.6873
G01 X31.2150 Y71.6888
G01 X31.1447 Y71.7063
G01 X31.0731 Y71.7168
G01 X31.0001 Y71.7204
G01 X17.1298 Y71.7104
G01 X14.0401 Y71.7104
G01 X13.9665 Y71.7067
G01 X13.8937 Y71.6959
G01 X13.8223 Y71.6780
G01 X13.7552 Y71.6541
G01 X13.6864 Y71.6217
G01 X13.6232 Y71.5839
G01 X13.5640 Y71.5400
G01 X13.5095 Y71.4906
G01 X6.4695 Y64.4506
G01 X6.4208 Y64.3969
G01 X6.3782 Y64.3398
G01 X6.3749 Y64.3348
G01 X6.3383 Y64.2737
G01 X6.3073 Y64.2082
G01 X6.2832 Y64.1412
G01 X6.2814 Y64.1354
G01 X6.2649 Y64.0699
G01 X6.2637 Y64.0640
G01 X6.2533 Y63.9935
G01 X6.2497 Y63.9211
G01 X6.1897 Y24.5506
G00 Z2.0000
G00 X9.0249 Y26.1552
G01 F60.00
G01 Z-0.0000
G01 F120.00
G01 X9.0701 Y26.0940
G01 X9.1195 Y26.0394
G01 X10.7704 Y24.3886
G01 X10.8241 Y24.3400
G01 X10.8832 Y24.2961
G01 X10.9464 Y24.2583
G01 X11.0118 Y24.2273
G01 X11.0823 Y24.2020
G01 X11.1537 Y24.1841
G01 X11.2265 Y24.1733
G01 X11.2989 Y24.1697
G01 X13.5497 Y24.1696
G01 X13.5497 Y12.2500
G01 X13.5536 Y12.1740
G01 X13.5642 Y12.1036
G01 X13.5820 Y12.0322
G01 X13.6078 Y11.9606
G01 X13.6383 Y11.8963
G01 X13.6749 Y11.8352
G01 X13.7201 Y11.7740
G01 X13.7695 Y11.7194
G01 X16.2995 Y9.1894
G01 X16.3541 Y9.1400
G01 X16.4112 Y9.0975
G01 X16.4764 Y9.0583
G01 X16.5429 Y9.0268
G01 X16.6123 Y9.0020
G01 X16.6837 Y8.9841
G01 X16.7578 Y8.9732
G01 X16.8301 Y8.9696
G01 X18.6585 Y8.9696
G01 X18.7276 Y8.9283
G01 X18.8030 Y8.8926
G01 X18.8838 Y8.8634
G01 X18.9694 Y8.8418
G01 X19.0519 Y8.8295
G01 X19.1401 Y8.8250
G01 X19.2258 Y8.8292
G01 X19.3108 Y8.8418
G01 X19.3953 Y8.8630
G01 X19.4749 Y8.8916
G01 X19.5504 Y8.9272
G01 X19.6262 Y8.9725
G01 X19.6970 Y9.0252
G01 X19.7588 Y9.0813
G01 X19.8149 Y9.1430
G01 X19.8676 Y9.2139
G01 X19.9129 Y9.2897
G01 X19.9485 Y9.3652
G01 X19.9766 Y9.4437
G01 X19.9983 Y9.5293
G01 X20.0111 Y9.6167
G01 X20.0151 Y9.7000
G01 X20.0111 Y9.7833
G01 X19.9983 Y9.8707
G01 X19.9766 Y9.9563
G01 X19.9485 Y10.0348
G01 X19.9129 Y10.1103
G01 X19.8676 Y10.1861
G01 X19.8149 Y10.2570
G01 X19.7588 Y10.3187
G01 X19.6961 Y10.3756
G01 X19.6262 Y10.4275
G01 X19.5547 Y10.4705
G01 X19.4726 Y10.5093
G01 X19.3941 Y10.5373
G01 X19.3108 Y10.5582
G01 X19.2258 Y10.5708
G01 X19.1425 Y10.5749
G01 X19.0519 Y10.5705
G01 X18.9694 Y10.5582
G01 X18.8885 Y10.5380
G01 X18.8052 Y10.5084
G01 X18.7298 Y10.4728
G01 X18.7253 Y10.4704
G01 X17.1409 Y10.4704
G01 X15.0504 Y12.5608
G01 X15.0504 Y24.4142
G01 X15.0539 Y24.4193
G01 X15.0993 Y24.4956
G01 X15.1362 Y24.5737
G01 X15.1661 Y24.6573
G01 X15.1877 Y24.7434
G01 X15.2004 Y24.8289
G01 X15.2051 Y24.9200
G01 X15.2007 Y25.0087
G01 X15.1872 Y25.0990
G01 X15.1661 Y25.1827
G01 X15.1371 Y25.2640
G01 X15.0987 Y25.3456
G01 X15.0526 Y25.4228
G01 X14.9981 Y25.4960
G01 X14.9400 Y25.5599
G01 X14.8761 Y25.6180
G01 X14.8029 Y25.6725
G01 X14.7245 Y25.7192
G01 X14.6464 Y25.7561
G01 X14.5651 Y25.7853
G01 X14.4766 Y25.8076
G01 X14.3888 Y25.8206
G01 X14.3001 Y25.8250
G01 X14.2114 Y25.8206
G01 X14.1235 Y25.8076
G01 X14.0397 Y25.7867
G01 X13.9538 Y25.7561
G01 X13.8757 Y25.7192
G01 X13.7994 Y25.6738
G01 X13.7943 Y25.6704
G01 X11.6109 Y25.6704
G01 X10.4004 Y26.8808
G01 X10.4004 Y45.7496
G01 X33.7793 Y45.7496
G01 X39.8904 Y39.6386
G01 X39.9441 Y39.5900
G01 X40.0012 Y39.5475
G01 X40.0686 Y39.5071
G01 X40.1329 Y39.4768
G01 X40.2023 Y39.4520
G01 X40.2737 Y39.4341
G01 X40.3453 Y39.4234
G01 X40.4201 Y39.4196
G01 X66.4925 Y39.4197
G01 X66.5636 Y39.4233
G01 X66.6365 Y39.4341
G01 X66.7079 Y39.4520
G01 X66.7749 Y39.4759
G01 X66.8459 Y39.5095
G01 X66.9069 Y39.5461
G01 X66.9680 Y39.5916
G01 X67.0207 Y39.6394
G01 X69.2909 Y41.9096
G01 X75.4413 Y41.9097
G01 X75.5136 Y41.9133
G01 X75.5865 Y41.9241
G01 X75.6579 Y41.9420
G01 X75.7249 Y41.9659
G01 X75.7959 Y41.9995
G01 X75.8569 Y42.0361
G01 X75.9161 Y42.0800
G01 X75.9707 Y42.1294
G01 X77.5715 Y43.7303
G01 X77.6145 Y43.7773
G01 X77.6216 Y43.7859
G01 X77.6584 Y43.8349
G01 X77.6640 Y43.8431
G01 X77.6970 Y43.8976
G01 X77.7024 Y43.9074
G01 X77.7304 Y43.9660
G01 X77.7342 Y43.9751
G01 X77.7551 Y44.0327
G01 X77.7581 Y44.0422
G01 X77.7745 Y44.1063
G01 X77.7764 Y44.1160
G01 X77.7857 Y44.1766
G01 X77.7869 Y44.1877
G01 X77.7904 Y44.2525
G01 X77.8304 Y48.2625
G01 X77.8294 Y48.2899
G01 X77.8289 Y48.3173
G01 X77.8279 Y48.3267
G01 X77.8274 Y48.3373
G01 X77.8238 Y48.3632
G01 X77.8209 Y48.3892
G01 X77.8188 Y48.3997
G01 X77.8172 Y48.4103
G01 X77.8111 Y48.4357
G01 X77.8056 Y48.4613
G01 X77.8025 Y48.4715
G01 X77.7999 Y48.4818
G01 X77.7914 Y48.5065
G01 X77.7834 Y48.5315
G01 X77.7793 Y48.5413
G01 X77.7762 Y48.5502
G01 X77.7647 Y48.5751
G01 X77.7533 Y48.6013
G01 X77.7493 Y48.6085
G01 X77.7447 Y48.6182
G01 X77.7315 Y48.6408
G01 X77.7182 Y48.6647
G01 X77.7129 Y48.6725
G01 X77.7074 Y48.6816
G01 X77.6921 Y48.7028
G01 X77.6772 Y48.7244
G01 X75.5287 Y51.5384
G01 X75.5426 Y51.5680
G01 X75.5937 Y51.7112
G01 X75.6303 Y51.8576
G01 X75.6526 Y52.0081
G01 X75.6600 Y52.1625
G01 X75.6526 Y52.3119
G01 X75.6305 Y52.4614
G01 X75.5926 Y52.6123
G01 X75.5421 Y52.7532
G01 X75.4771 Y52.8907
G01 X75.3974 Y53.0231
G01 X75.3083 Y53.1433
G01 X75.2078 Y53.2542
G01 X75.0934 Y53.3582
G01 X74.9732 Y53.4474
G01 X74.8386 Y53.5281
G01 X74.7032 Y53.5920
G01 X74.5600 Y53.6433
G01 X74.4125 Y53.6802
G01 X74.2620 Y53.7025
G01 X74.1101 Y53.7100
G01 X73.9606 Y53.7027
G01 X73.8053 Y53.6797
G01 X73.6601 Y53.6433
G01 X73.5169 Y53.5920
G01 X73.3794 Y53.5270
G01 X73.2490 Y53.4488
G01 X73.1268 Y53.3582
G01 X73.0158 Y53.2577
G01 X72.9104 Y53.1414
G01 X72.8213 Y53.0211
G01 X72.7431 Y52.8907
G01 X72.6781 Y52.7532
G01 X72.6276 Y52.6123
G01 X72.5894 Y52.4600
G01 X72.5675 Y52.3119
G01 X72.5601 Y52.1600
G01 X72.5675 Y52.0081
G01 X72.5894 Y51.8600
G01 X72.6272 Y51.7089
G01 X72.6781 Y51.5668
G01 X72.7431 Y51.4293
G01 X72.8213 Y51.2989
G01 X72.9104 Y51.1786
G01 X73.0158 Y51.0623
G01 X73.1268 Y50.9618
G01 X73.2500 Y50.8706
G01 X73.3794 Y50.7930
G01 X73.5169 Y50.7280
G01 X73.6601 Y50.6767
G01 X73.8065 Y50.6400
G01 X73.9582 Y50.6175
G01 X74.1089 Y50.6100
G01 X74.2608 Y50.6174
G01 X74.3355 Y50.6283
G01 X76.3272 Y48.0196
G01 X76.2928 Y44.5739
G01 X75.1293 Y43.4104
G01 X68.9801 Y43.4104
G01 X68.9065 Y43.4067
G01 X68.8337 Y43.3959
G01 X68.7623 Y43.3780
G01 X68.6952 Y43.3541
G01 X68.6264 Y43.3217
G01 X68.5632 Y43.2839
G01 X68.5040 Y43.2400
G01 X68.4504 Y43.1914
G01 X66.1793 Y40.9204
G01 X40.7309 Y40.9204
G01 X35.1512 Y46.5000
G01 X40.0034 Y51.3521
G01 X41.8073 Y51.3521
G01 X41.8738 Y51.2414
G01 X41.9629 Y51.1211
G01 X42.0649 Y51.0083
G01 X42.1793 Y50.9043
G01 X42.3015 Y50.8137
G01 X42.4319 Y50.7355
G01 X42.5717 Y50.6696
G01 X42.7126 Y50.6192
G01 X42.8578 Y50.5828
G01 X43.0107 Y50.5600
G01 X43.1626 Y50.5525
G01 X43.3145 Y50.5600
G01 X43.4650 Y50.5823
G01 X43.6125 Y50.6192
G01 X43.7557 Y50.6705
G01 X43.8932 Y50.7355
G01 X44.0237 Y50.8137
G01 X44.1468 Y50.9051
G01 X44.2586 Y51.0065
G01 X44.3591 Y51.1173
G01 X44.4514 Y51.2414
G01 X44.5307 Y51.3740
G01 X44.5946 Y51.5093
G01 X44.6458 Y51.6526
G01 X44.6828 Y51.8001
G01 X44.7048 Y51.9481
G01 X44.7126 Y52.1025
G01 X44.7048 Y52.2569
G01 X44.6828 Y52.4050
G01 X44.6458 Y52.5524
G01 X44.5946 Y52.6957
G01 X44.5307 Y52.8310
G01 X44.4514 Y52.9636
G01 X44.3608 Y53.0858
G01 X44.2603 Y53.1967
G01 X44.1459 Y53.3007
G01 X44.0216 Y53.3926
G01 X43.8932 Y53.4695
G01 X43.7557 Y53.5345
G01 X43.6102 Y53.5864
G01 X43.4650 Y53.6227
G01 X43.3157 Y53.6449
G01 X43.1601 Y53.6524
G01 X43.0107 Y53.6450
G01 X42.8601 Y53.6227
G01 X42.7126 Y53.5858
G01 X42.5717 Y53.5354
G01 X42.4319 Y53.4695
G01 X42.2994 Y53.3899
G01 X42.1793 Y53.3007
G01 X42.0666 Y53.1985
G01 X41.9629 Y53.0839
G01 X41.8738 Y52.9636
G01 X41.8073 Y52.8529
G01 X39.6926 Y52.8529
G01 X39.6215 Y52.8494
G01 X39.5462 Y52.8384
G01 X39.4724 Y52.8198
G01 X39.4054 Y52.7957
G01 X39.3411 Y52.7654
G01 X39.2757 Y52.7264
G01 X39.2165 Y52.6825
G01 X39.1620 Y52.6331
G01 X33.7793 Y47.2504
G01 X10.4004 Y47.2504
G01 X10.4004 Y63.2646
G01 X14.9699 Y67.5429
G01 X19.2842 Y67.5896
G01 X22.2693 Y67.5896
G01 X22.8997 Y66.9592
G01 X22.8997 Y65.8773
G01 X22.7937 Y65.7986
G01 X22.6938 Y65.7078
G01 X22.6050 Y65.6095
G01 X22.5275 Y65.5049
G01 X22.4607 Y65.3935
G01 X22.4028 Y65.2716
G01 X22.3582 Y65.1469
G01 X22.3260 Y65.0184
G01 X22.3066 Y64.8873
G01 X22.3001 Y64.7550
G01 X22.3066 Y64.6227
G01 X22.3260 Y64.4916
G01 X22.3582 Y64.3631
G01 X22.4028 Y64.2384
G01 X22.4595 Y64.1186
G01 X22.5276 Y64.0050
G01 X22.6073 Y63.8976
G01 X22.6955 Y63.8004
G01 X22.7918 Y63.7130
G01 X22.9001 Y63.6325
G01 X23.0137 Y63.5644
G01 X23.1312 Y63.5088
G01 X23.2583 Y63.4631
G01 X23.3867 Y63.4309
G01 X23.5153 Y63.4118
G01 X23.6501 Y63.4050
G01 X23.7848 Y63.4118
G01 X23.9135 Y63.4309
G01 X24.0396 Y63.4625
G01 X24.1667 Y63.5078
G01 X24.2886 Y63.5656
G01 X24.4001 Y63.6325
G01 X24.5047 Y63.7100
G01 X24.6064 Y63.8022
G01 X24.6936 Y63.8986
G01 X24.7712 Y64.0030
G01 X24.8407 Y64.1186
G01 X24.8973 Y64.2384
G01 X24.9412 Y64.3608
G01 X24.9744 Y64.4928
G01 X24.9936 Y64.6227
G01 X25.0000 Y64.7525
G01 X24.9936 Y64.8873
G01 X24.9741 Y65.0184
G01 X24.9426 Y65.1445
G01 X24.8973 Y65.2716
G01 X24.8407 Y65.3914
G01 X24.7739 Y65.5029
G01 X24.6936 Y65.6115
G01 X24.6029 Y65.7113
G01 X24.5065 Y65.7986
G01 X24.4004 Y65.8773
G01 X24.4004 Y67.2712
G01 X24.3968 Y67.3435
G01 X24.3860 Y67.4164
G01 X24.3681 Y67.4878
G01 X24.3423 Y67.5594
G01 X24.3118 Y67.6237
G01 X24.2740 Y67.6869
G01 X24.2301 Y67.7460
G01 X24.1815 Y67.7997
G01 X23.1107 Y68.8706
G01 X23.0561 Y68.9200
G01 X22.9970 Y68.9639
G01 X22.9338 Y69.0017
G01 X22.8672 Y69.0332
G01 X22.7979 Y69.0580
G01 X22.7265 Y69.0759
G01 X22.6536 Y69.0867
G01 X22.5813 Y69.0903
G01 X19.2801 Y69.0904
G01 X14.6619 Y69.0403
G01 X14.6416 Y69.0391
G01 X14.6209 Y69.0387
G01 X14.6048 Y69.0369
G01 X14.5897 Y69.0360
G01 X14.5683 Y69.0327
G01 X14.5480 Y69.0304
G01 X14.5319 Y69.0269
G01 X14.5145 Y69.0240
G01 X14.4960 Y69.0192
G01 X14.4760 Y69.0148
G01 X14.4604 Y69.0099
G01 X14.4445 Y69.0056
G01 X14.4253 Y68.9986
G01 X14.4059 Y68.9923
G01 X14.3908 Y68.9858
G01 X14.3754 Y68.9801
G01 X14.3570 Y68.9712
G01 X14.3383 Y68.9630
G01 X14.3240 Y68.9551
G01 X14.3081 Y68.9473
G01 X14.2918 Y68.9372
G01 X14.2729 Y68.9266
G01 X14.2604 Y68.9180
G01 X14.2465 Y68.9094
G01 X14.2302 Y68.8970
G01 X14.2144 Y68.8861
G01 X14.2008 Y68.8748
G01 X14.1878 Y68.8648
G01 X14.1728 Y68.8510
G01 X14.1573 Y68.8377
G01 X9.1364 Y64.1369
G01 X9.1286 Y64.1289
G01 X9.1187 Y64.1197
G01 X9.1030 Y64.1025
G01 X9.0860 Y64.0848
G01 X9.0783 Y64.0752
G01 X9.0693 Y64.0651
G01 X9.0554 Y64.0464
G01 X9.0410 Y64.0282
G01 X9.0335 Y64.0168
G01 X9.0255 Y64.0058
G01 X9.0136 Y63.9859
G01 X9.0010 Y63.9664
G01 X8.9946 Y63.9543
G01 X8.9878 Y63.9426
G01 X8.9778 Y63.9216
G01 X8.9672 Y63.9009
G01 X8.9621 Y63.8883
G01 X8.9569 Y63.8771
G01 X8.9485 Y63.8541
G01 X8.9400 Y63.8325
G01 X8.9361 Y63.8195
G01 X8.9324 Y63.8090
G01 X8.9260 Y63.7841
G01 X8.9191 Y63.7593
G01 X8.9171 Y63.7484
G01 X8.9139 Y63.7352
G01 X8.9105 Y63.7122
G01 X8.9062 Y63.6881
G01 X8.9051 Y63.6758
G01 X8.9032 Y63.6623
G01 X8.9021 Y63.6391
G01 X8.9002 Y63.6159
G01 X8.9003 Y63.6023
G01 X8.8997 Y63.5900
G01 X8.8997 Y26.5700
G01 X8.9036 Y26.4940
G01 X8.9142 Y26.4236
G01 X8.9320 Y26.3522
G01 X8.9578 Y26.2806
G01 X8.9883 Y26.2163
G01 X9.0249 Y26.1552
G00 Z2.0000
G00 X12.1425 Y34.2534
G01 F60.00
G01 Z-0.0000
G01 F120.00
G01 X12.2360 Y34.1273
G01 X12.3366 Y34.0165
G01 X12.4493 Y33.9143
G01 X12.5715 Y33.8237
G01 X12.6998 Y33.7467
G01 X12.8417 Y33.6796
G01 X12.9826 Y33.6292
G01 X13.1278 Y33.5928
G01 X13.2831 Y33.5698
G01 X13.4326 Y33.5625
G01 X13.5845 Y33.5700
G01 X13.7350 Y33.5923
G01 X13.8603 Y33.6236
G01 X16.0997 Y31.3842
G01 X16.0997 Y28.8800
G01 X16.1032 Y28.8077
G01 X16.1142 Y28.7336
G01 X16.1314 Y28.6646
G01 X16.1578 Y28.5906
G01 X16.1883 Y28.5263
G01 X16.2262 Y28.4631
G01 X16.2701 Y28.4040
G01 X16.3187 Y28.3503
G01 X35.6695 Y8.9994
G01 X35.7241 Y8.9500
G01 X35.7812 Y8.9075
G01 X35.8464 Y8.8683
G01 X35.9129 Y8.8368
G01 X35.9799 Y8.8127
G01 X36.0513 Y8.7946
G01 X36.0669 Y8.7921
G01 X38.7097 Y6.1492
G01 X38.7097 Y5.0682
G01 X38.6878 Y5.0314
G01 X38.6512 Y4.9537
G01 X38.6228 Y4.8740
G01 X38.6017 Y4.7895
G01 X38.5893 Y4.7058
G01 X38.5851 Y4.6200
G01 X38.5893 Y4.5342
G01 X38.6019 Y4.4493
G01 X38.6235 Y4.3637
G01 X38.6517 Y4.2852
G01 X38.6873 Y4.2097
G01 X38.7325 Y4.1339
G01 X38.7853 Y4.0630
G01 X38.8414 Y4.0013
G01 X38.9031 Y3.9452
G01 X38.9740 Y3.8925
G01 X39.0476 Y3.8483
G01 X39.1230 Y3.8126
G01 X39.2061 Y3.7827
G01 X39.2894 Y3.7618
G01 X39.3743 Y3.7492
G01 X39.4601 Y3.7450
G01 X39.5471 Y3.7493
G01 X39.6308 Y3.7618
G01 X39.7153 Y3.7830
G01 X39.7961 Y3.8121
G01 X39.8715 Y3.8478
G01 X39.9083 Y3.8696
G01 X46.0201 Y3.8696
G01 X46.0201 Y3.7473
G01 X46.0205 Y3.7412
G01 X46.0216 Y3.7352
G01 X46.0239 Y3.7282
G01 X46.0272 Y3.7216
G01 X46.0314 Y3.7156
G01 X46.0374 Y3.7095
G01 X46.0444 Y3.7045
G01 X46.0510 Y3.7012
G01 X46.0579 Y3.6988
G01 X46.0652 Y3.6976
G01 X47.6725 Y3.6974
G01 X47.6810 Y3.6986
G01 X47.6892 Y3.7012
G01 X47.6968 Y3.7051
G01 X47.7037 Y3.7103
G01 X47.7102 Y3.7176
G01 X47.7147 Y3.7249
G01 X47.7179 Y3.7328
G01 X47.7197 Y3.7412
G01 X47.7201 Y3.7473
G01 X47.7201 Y4.1246
G01 X64.3751 Y4.1246
G01 X64.3751 Y4.0725
G01 X64.3763 Y4.0640
G01 X64.3789 Y4.0559
G01 X64.3816 Y4.0504
G01 X64.3849 Y4.0452
G01 X64.3889 Y4.0405
G01 X64.3934 Y4.0363
G01 X64.3983 Y4.0328
G01 X64.4037 Y4.0298
G01 X64.4094 Y4.0275
G01 X64.4153 Y4.0260
G01 X64.4251 Y4.0250
G01 X64.8747 Y4.0250
G01 X64.8747 Y3.6338
G01 X64.8783 Y3.5615
G01 X64.8892 Y3.4886
G01 X64.9078 Y3.4149
G01 X64.9319 Y3.3479
G01 X64.9622 Y3.2835
G01 X65.0012 Y3.2181
G01 X65.0451 Y3.1590
G01 X65.0945 Y3.1044
G01 X66.4595 Y1.7394
G01 X66.5131 Y1.6908
G01 X66.5753 Y1.6448
G01 X66.6364 Y1.6083
G01 X66.7029 Y1.5768
G01 X66.7746 Y1.5513
G01 X66.8437 Y1.5341
G01 X66.9165 Y1.5233
G01 X66.9901 Y1.5196
G01 X92.1301 Y1.5196
G01 X92.2024 Y1.5232
G01 X92.2765 Y1.5341
G01 X92.3455 Y1.5513
G01 X92.4195 Y1.5778
G01 X92.4838 Y1.6083
G01 X92.5469 Y1.6461
G01 X92.6061 Y1.6900
G01 X92.6607 Y1.7394
G01 X98.0607 Y7.1394
G01 X98.1101 Y7.1940
G01 X98.1553 Y7.2552
G01 X98.1918 Y7.3163
G01 X98.2223 Y7.3806
G01 X98.2481 Y7.4522
G01 X98.2660 Y7.5236
G01 X98.2765 Y7.5940
G01 X98.2804 Y7.6700
G01 X98.2804 Y23.8900
G01 X98.2768 Y23.9635
G01 X98.2660 Y24.0364
G01 X98.2488 Y24.1054
G01 X98.2233 Y24.1771
G01 X98.1918 Y24.2437
G01 X98.1553 Y24.3048
G01 X98.1101 Y24.3661
G01 X98.0607 Y24.4206
G01 X96.9998 Y25.4814
G01 X96.9461 Y25.5300
G01 X96.8870 Y25.5739
G01 X96.8238 Y25.6117
G01 X96.7572 Y25.6432
G01 X96.6879 Y25.6680
G01 X96.6165 Y25.6859
G01 X96.5436 Y25.6967
G01 X96.4689 Y25.7003
G01 X96.3965 Y25.6967
G01 X96.3237 Y25.6859
G01 X96.2523 Y25.6680
G01 X96.1829 Y25.6432
G01 X96.1164 Y25.6117
G01 X96.0532 Y25.5739
G01 X95.9940 Y25.5300
G01 X95.9395 Y25.4806
G01 X95.8901 Y25.4260
G01 X95.8462 Y25.3669
G01 X95.8083 Y25.3037
G01 X95.7769 Y25.2371
G01 X95.7520 Y25.1678
G01 X95.7342 Y25.0964
G01 X95.7233 Y25.0235
G01 X95.7197 Y24.9488
G01 X95.7233 Y24.8765
G01 X95.7342 Y24.8036
G01 X95.7520 Y24.7322
G01 X95.7760 Y24.6651
G01 X95.8095 Y24.5942
G01 X95.8462 Y24.5331
G01 X95.8893 Y24.4749
G01 X95.9395 Y24.4194
G01 X96.7797 Y23.5792
G01 X96.7797 Y7.9808
G01 X91.8193 Y3.0204
G01 X67.3009 Y3.0204
G01 X66.3754 Y3.9458
G01 X66.3754 Y4.0250
G01 X66.8288 Y4.0251
G01 X66.8372 Y4.0265
G01 X66.8442 Y4.0288
G01 X66.8518 Y4.0328
G01 X66.8577 Y4.0371
G01 X66.8629 Y4.0423
G01 X66.8673 Y4.0483
G01 X66.8713 Y4.0559
G01 X66.8736 Y4.0629
G01 X66.8747 Y4.0689
G01 X66.8751 Y4.0750
G01 X66.8751 Y5.6762
G01 X66.8743 Y5.6835
G01 X66.8722 Y5.6918
G01 X66.8686 Y5.6996
G01 X66.8637 Y5.7067
G01 X66.8577 Y5.7129
G01 X66.8508 Y5.7179
G01 X66.8431 Y5.7216
G01 X66.8348 Y5.7240
G01 X66.8251 Y5.7250
G01 X64.4226 Y5.7249
G01 X64.4153 Y5.7240
G01 X64.4094 Y5.7225
G01 X64.4026 Y5.7197
G01 X64.3973 Y5.7166
G01 X64.3915 Y5.7120
G01 X64.3872 Y5.7077
G01 X64.3828 Y5.7017
G01 X64.3799 Y5.6964
G01 X64.3766 Y5.6871
G01 X64.3752 Y5.6787
G01 X64.3751 Y5.6254
G01 X54.3859 Y5.6254
G01 X54.3604 Y5.6508
G01 X54.3604 Y10.2302
G01 X54.3655 Y10.2510
G01 X54.3765 Y10.3257
G01 X54.3801 Y10.4000
G01 X54.3761 Y10.4779
G01 X54.3653 Y10.5502
G01 X54.3469 Y10.6235
G01 X54.3215 Y10.6946
G01 X54.2903 Y10.7608
G01 X54.2503 Y10.8278
G01 X54.2068 Y10.8865
G01 X54.1528 Y10.9462
G01 X54.0986 Y10.9952
G01 X54.0379 Y11.0402
G01 X53.9731 Y11.0791
G01 X53.9048 Y11.1114
G01 X53.8336 Y11.1368
G01 X53.7603 Y11.1552
G01 X53.6856 Y11.1663
G01 X53.6125 Y11.1699
G01 X53.5346 Y11.1663
G01 X53.4623 Y11.1556
G01 X53.3842 Y11.1361
G01 X53.3154 Y11.1114
G01 X53.2471 Y11.0791
G01 X53.1823 Y11.0402
G01 X53.1197 Y10.9936
G01 X53.0656 Y10.9445
G01 X53.0149 Y10.8885
G01 X52.9699 Y10.8278
G01 X52.9310 Y10.7630
G01 X52.8987 Y10.6947
G01 X52.8732 Y10.6235
G01 X52.8549 Y10.5502
G01 X52.8439 Y10.4767
G01 X52.8401 Y10.4000
G01 X52.8437 Y10.3257
G01 X52.8547 Y10.2510
G01 X52.8597 Y10.2302
G01 X52.8597 Y5.6254
G01 X47.1953 Y5.6253
G01 X47.1242 Y5.6217
G01 X47.0513 Y5.6109
G01 X46.9799 Y5.5930
G01 X46.9106 Y5.5682
G01 X46.8440 Y5.5367
G01 X46.7809 Y5.4989
G01 X46.7217 Y5.4550
G01 X46.6689 Y5.4073
G01 X46.6589 Y5.3973
G01 X46.0676 Y5.3973
G01 X46.0615 Y5.3966
G01 X46.0544 Y5.3948
G01 X46.0487 Y5.3925
G01 X46.0433 Y5.3896
G01 X46.0374 Y5.3852
G01 X46.0330 Y5.3809
G01 X46.0292 Y5.3761
G01 X46.0257 Y5.3704
G01 X40.2104 Y5.3704
G01 X40.2104 Y6.4600
G01 X40.2067 Y6.5348
G01 X40.1960 Y6.6064
G01 X40.1781 Y6.6778
G01 X40.1533 Y6.7471
G01 X40.1229 Y6.8115
G01 X40.0826 Y6.8789
G01 X40.0401 Y6.9361
G01 X39.9915 Y6.9897
G01 X36.9198 Y10.0614
G01 X36.8661 Y10.1100
G01 X36.8090 Y10.1525
G01 X36.7438 Y10.1917
G01 X36.6772 Y10.2232
G01 X36.6102 Y10.2473
G01 X36.5389 Y10.2654
G01 X36.5233 Y10.2679
G01 X17.6004 Y29.1908
G01 X17.6004 Y31.6962
G01 X17.5968 Y31.7685
G01 X17.5860 Y31.8414
G01 X17.5681 Y31.9128
G01 X17.5423 Y31.9844
G01 X17.5118 Y32.0487
G01 X17.4740 Y32.1119
G01 X17.4301 Y32.1711
G01 X17.3815 Y32.2247
G01 X14.9215 Y34.6848
G01 X14.9528 Y34.8101
G01 X14.9751 Y34.9606
G01 X14.9826 Y35.1125
G01 X14.9753 Y35.2620
G01 X14.9523 Y35.4173
G01 X14.9158 Y35.5624
G01 X14.8646 Y35.7057
G01 X14.7996 Y35.8432
G01 X14.7227 Y35.9716
G01 X14.6291 Y36.0977
G01 X14.5286 Y36.2085
G01 X14.4159 Y36.3107
G01 X14.2937 Y36.4013
G01 X14.1829 Y36.4677
G01 X14.1829 Y39.9417
G01 X16.3609 Y42.1196
G01 X23.4593 Y42.1196
G01 X26.2722 Y39.3067
G01 X26.2722 Y36.4277
G01 X26.1615 Y36.3613
G01 X26.0393 Y36.2707
G01 X25.9266 Y36.1685
G01 X25.8260 Y36.0577
G01 X25.7325 Y35.9316
G01 X25.6556 Y35.8032
G01 X25.5916 Y35.6679
G01 X25.5387 Y35.5201
G01 X25.5024 Y35.3749
G01 X25.4800 Y35.2244
G01 X25.4726 Y35.0725
G01 X25.4799 Y34.9230
G01 X25.5024 Y34.7701
G01 X25.5393 Y34.6226
G01 X25.5906 Y34.4793
G01 X25.6556 Y34.3418
G01 X25.7338 Y34.2114
G01 X25.8244 Y34.0892
G01 X25.9266 Y33.9765
G01 X26.0393 Y33.8743
G01 X26.1635 Y33.7824
G01 X26.2919 Y33.7055
G01 X26.4317 Y33.6396
G01 X26.5726 Y33.5892
G01 X26.7178 Y33.5528
G01 X26.8682 Y33.5303
G01 X27.0226 Y33.5225
G01 X27.1745 Y33.5300
G01 X27.3250 Y33.5523
G01 X27.4713 Y33.5889
G01 X27.6180 Y33.6415
G01 X27.7532 Y33.7055
G01 X27.8837 Y33.7837
G01 X28.0059 Y33.8743
G01 X28.1168 Y33.9748
G01 X28.2223 Y34.0911
G01 X28.3114 Y34.2114
G01 X28.3896 Y34.3418
G01 X28.4546 Y34.4793
G01 X28.5051 Y34.6202
G01 X28.5432 Y34.7725
G01 X28.5651 Y34.9206
G01 X28.5726 Y35.0713
G01 X28.5648 Y35.2269
G01 X28.5428 Y35.3750
G01 X28.5065 Y35.5201
G01 X28.4546 Y35.6657
G01 X28.3884 Y35.8053
G01 X28.3114 Y35.9336
G01 X28.2223 Y36.0539
G01 X28.1186 Y36.1685
G01 X28.0040 Y36.2722
G01 X27.8837 Y36.3613
G01 X27.7729 Y36.4277
G01 X27.7729 Y39.6175
G01 X27.7695 Y39.6886
G01 X27.7585 Y39.7639
G01 X27.7413 Y39.8329
G01 X27.7148 Y39.9069
G01 X27.6843 Y39.9712
G01 X27.6465 Y40.0344
G01 X27.6026 Y40.0936
G01 X27.5540 Y40.1472
G01 X24.2998 Y43.4014
G01 X24.2442 Y43.4515
G01 X24.1870 Y43.4939
G01 X24.1259 Y43.5305
G01 X24.0572 Y43.5632
G01 X23.9867 Y43.5884
G01 X23.9165 Y43.6059
G01 X23.8461 Y43.6164
G01 X23.7701 Y43.6204
G01 X16.0501 Y43.6204
G01 X15.9765 Y43.6167
G01 X15.9037 Y43.6059
G01 X15.8323 Y43.5880
G01 X15.7641 Y43.5637
G01 X15.6964 Y43.5317
G01 X15.6332 Y43.4939
G01 X15.5740 Y43.4500
G01 X15.5195 Y43.4006
G01 X12.9012 Y40.7822
G01 X12.8526 Y40.7285
G01 X12.8087 Y40.6694
G01 X12.7708 Y40.6062
G01 X12.7389 Y40.5385
G01 X12.7145 Y40.4703
G01 X12.6967 Y40.3989
G01 X12.6858 Y40.3260
G01 X12.6822 Y40.2537
G01 X12.6822 Y36.4677
G01 X12.5715 Y36.4013
G01 X12.4512 Y36.3122
G01 X12.3383 Y36.2102
G01 X12.2344 Y36.0958
G01 X12.1438 Y35.9736
G01 X12.0656 Y35.8432
G01 X11.9997 Y35.7034
G01 X11.9493 Y35.5624
G01 X11.9129 Y35.4173
G01 X11.8900 Y35.2644
G01 X11.8826 Y35.1125
G01 X11.8899 Y34.9630
G01 X11.9129 Y34.8077
G01 X11.9493 Y34.6626
G01 X12.0006 Y34.5193
G01 X12.0656 Y34.3818
G01 X12.1425 Y34.2534
G00 Z2.0000
G00 X18.9699 Y38.5723
G01 F60.00
G01 Z-0.0000
G01 F120.00
G01 X18.9937 Y38.3054
G01 X19.0533 Y38.0451
G01 X19.1481 Y37.7945
G01 X19.2751 Y37.5606
G01 X19.4332 Y37.3454
G01 X19.6190 Y37.1537
G01 X19.8292 Y36.9889
G01 X20.0597 Y36.8541
G01 X20.3064 Y36.7520
G01 X20.5647 Y36.6842
G01 X20.8298 Y36.6521
G01 X21.0969 Y36.6563
G01 X21.3600 Y36.6966
G01 X21.6169 Y36.7725
G01 X21.8610 Y36.8829
G01 X22.0865 Y37.0243
G01 X22.2913 Y37.1956
G01 X22.4710 Y37.3931
G01 X22.5573 Y37.5186
G01 X22.6223 Y37.6132
G01 X22.7423 Y37.8518
G01 X22.8288 Y38.1044
G01 X22.8802 Y38.3665
G01 X22.8956 Y38.6331
G01 X22.8746 Y38.8993
G01 X22.8177 Y39.1602
G01 X22.7259 Y39.4110
G01 X22.6010 Y39.6470
G01 X22.4452 Y39.8638
G01 X22.2613 Y40.0575
G01 X22.0522 Y40.2249
G01 X21.8238 Y40.3616
G01 X21.5782 Y40.4664
G01 X21.3206 Y40.5368
G01 X21.0558 Y40.5717
G01 X20.7888 Y40.5703
G01 X20.5244 Y40.5327
G01 X20.2676 Y40.4595
G01 X20.0231 Y40.3522
G01 X19.7954 Y40.2127
G01 X19.5894 Y40.0441
G01 X19.4070 Y39.8479
G01 X19.2534 Y39.6294
G01 X19.1690 Y39.4658
G01 X19.1310 Y39.3921
G01 X19.0418 Y39.1404
G01 X18.9877 Y38.8789
G01 X18.9694 Y38.6111
G01 X18.9699 Y38.5723
G00 Z2.0000
G00 X19.6425 Y37.7534
G01 F60.00
G01 Z-0.0000
G01 F120.00
G01 X19.7344 Y37.6292
G01 X19.8366 Y37.5165
G01 X19.9493 Y37.4143
G01 X20.0715 Y37.3237
G01 X20.2019 Y37.2455
G01 X20.3394 Y37.1805
G01 X20.4826 Y37.1292
G01 X20.6302 Y37.0923
G01 X20.7807 Y37.0700
G01 X20.9326 Y37.0625
G01 X21.0845 Y37.0700
G01 X21.2351 Y37.0923
G01 X21.3825 Y37.1292
G01 X21.5257 Y37.1805
G01 X21.6632 Y37.2455
G01 X21.7937 Y37.3237
G01 X21.9159 Y37.4143
G01 X22.0286 Y37.5165
G01 X22.1308 Y37.6292
G01 X22.2214 Y37.7514
G01 X22.2996 Y37.8818
G01 X22.3646 Y38.0193
G01 X22.4158 Y38.1626
G01 X22.4528 Y38.3101
G01 X22.4751 Y38.4606
G01 X22.4826 Y38.6125
G01 X22.4751 Y38.7644
G01 X22.4528 Y38.9150
G01 X22.4158 Y39.0624
G01 X22.3646 Y39.2057
G01 X22.2996 Y39.3432
G01 X22.2214 Y39.4736
G01 X22.1308 Y39.5958
G01 X22.0286 Y39.7085
G01 X21.9159 Y39.8107
G01 X21.7937 Y39.9013
G01 X21.6632 Y39.9795
G01 X21.5257 Y40.0445
G01 X21.3825 Y40.0958
G01 X21.2350 Y40.1327
G01 X21.0845 Y40.1550
G01 X20.9326 Y40.1625
G01 X20.7807 Y40.1550
G01 X20.6301 Y40.1327
G01 X20.4826 Y40.0958
G01 X20.3394 Y40.0445
G01 X20.2019 Y39.9795
G01 X20.0715 Y39.9013
G01 X19.9493 Y39.8107
G01 X19.8366 Y39.7085
G01 X19.7344 Y39.5958
G01 X19.6438 Y39.4736
G01 X19.5656 Y39.3432
G01 X19.5006 Y39.2057
G01 X19.4493 Y39.0624
G01 X19.4124 Y38.9149
G01 X19.3900 Y38.7644
G01 X19.3826 Y38.6125
G01 X19.3900 Y38.4606
G01 X19.4124 Y38.3101
G01 X19.4493 Y38.1626
G01 X19.5006 Y38.0193
G01 X19.5656 Y37.8818
G01 X19.6425 Y37.7534
G00 Z2.0000
G00 X19.6425 Y30.7534
G01 F60.00
G01 Z-0.0000
G01 F120.00
G01 X19.7344 Y30.6292
G01 X19.8383 Y30.5148
G01 X19.9493 Y30.4143
G01 X20.0694 Y30.3251
G01 X20.2019 Y30.2455
G01 X20.3417 Y30.1796
G01 X20.4826 Y30.1292
G01 X20.6278 Y30.0928
G01 X20.7807 Y30.0700
G01 X20.9338 Y30.0625
G01 X21.0869 Y30.0703
G01 X21.2351 Y30.0923
G01 X21.3802 Y30.1286
G01 X21.5257 Y30.1805
G01 X21.6654 Y30.2467
G01 X21.7937 Y30.3237
G01 X21.9140 Y30.4128
G01 X22.0286 Y30.5165
G01 X22.1323 Y30.6311
G01 X22.2214 Y30.7514
G01 X22.2878 Y30.8621
G01 X23.3068 Y30.8621
G01 X37.0895 Y17.0794
G01 X37.1441 Y17.0300
G01 X37.2032 Y16.9861
G01 X37.2664 Y16.9483
G01 X37.3341 Y16.9163
G01 X37.4023 Y16.8920
G01 X37.4737 Y16.8741
G01 X37.5465 Y16.8633
G01 X37.6201 Y16.8596
G01 X54.9313 Y16.8597
G01 X55.0036 Y16.8633
G01 X55.0741 Y16.8736
G01 X55.1479 Y16.8920
G01 X55.2195 Y16.9178
G01 X55.2838 Y16.9483
G01 X55.3469 Y16.9861
G01 X55.4080 Y17.0316
G01 X55.4607 Y17.0794
G01 X55.5101 Y17.1340
G01 X55.5540 Y17.1932
G01 X55.5906 Y17.2542
G01 X55.6238 Y17.3240
G01 X55.6488 Y17.3946
G01 X55.6660 Y17.4636
G01 X55.6765 Y17.5340
G01 X55.6804 Y17.6100
G01 X55.6768 Y17.6835
G01 X55.6660 Y17.7564
G01 X55.6474 Y17.8301
G01 X55.6233 Y17.8971
G01 X55.5929 Y17.9615
G01 X55.5553 Y18.0248
G01 X55.5101 Y18.0861
G01 X55.4607 Y18.1406
G01 X55.4061 Y18.1900
G01 X55.3449 Y18.2352
G01 X55.2816 Y18.2729
G01 X55.2172 Y18.3032
G01 X55.1502 Y18.3273
G01 X55.0765 Y18.3459
G01 X55.0012 Y18.3569
G01 X54.9301 Y18.3604
G01 X37.9309 Y18.3604
G01 X24.1482 Y32.1431
G01 X24.0936 Y32.1925
G01 X24.0345 Y32.2364
G01 X23.9691 Y32.2754
G01 X23.9047 Y32.3057
G01 X23.8377 Y32.3298
G01 X23.7640 Y32.3484
G01 X23.6899 Y32.3593
G01 X23.6176 Y32.3629
G01 X22.2878 Y32.3629
G01 X22.2214 Y32.4736
G01 X22.1308 Y32.5958
G01 X22.0286 Y32.7085
G01 X21.9178 Y32.8091
G01 X21.7916 Y32.9026
G01 X21.6632 Y32.9795
G01 X21.5257 Y33.0445
G01 X21.3825 Y33.0958
G01 X21.2350 Y33.1327
G01 X21.0845 Y33.1550
G01 X20.9350 Y33.1624
G01 X20.7782 Y33.1547
G01 X20.6301 Y33.1327
G01 X20.4815 Y33.0954
G01 X20.3394 Y33.0445
G01 X20.1998 Y32.9783
G01 X20.0694 Y32.8999
G01 X19.9493 Y32.8107
G01 X19.8383 Y32.7102
G01 X19.7344 Y32.5958
G01 X19.6438 Y32.4736
G01 X19.5656 Y32.3432
G01 X19.4997 Y32.2034
G01 X19.4493 Y32.0624
G01 X19.4129 Y31.9173
G01 X19.3903 Y31.7669
G01 X19.3826 Y31.6125
G01 X19.3900 Y31.4606
G01 X19.4124 Y31.3101
G01 X19.4501 Y31.1602
G01 X19.5006 Y31.0193
G01 X19.5645 Y30.8840
G01 X19.6425 Y30.7534
G00 Z2.0000
G00 X33.2325 Y30.7134
G01 F60.00
G01 Z-0.0000
G01 F120.00
G01 X33.3244 Y30.5892
G01 X33.4283 Y30.4748
G01 X33.5412 Y30.3728
G01 X33.6615 Y30.2837
G01 X33.7722 Y30.2173
G01 X33.7722 Y25.8263
G01 X33.7761 Y25.7515
G01 X33.7867 Y25.6811
G01 X33.8039 Y25.6121
G01 X33.8294 Y25.5404
G01 X33.8620 Y25.4717
G01 X33.8987 Y25.4106
G01 X33.9410 Y25.3534
G01 X33.9920 Y25.2969
G01 X39.7095 Y19.5794
G01 X39.7641 Y19.5300
G01 X39.8212 Y19.4875
G01 X39.8875 Y19.4477
G01 X39.9552 Y19.4159
G01 X40.0223 Y19.3920
G01 X40.0913 Y19.3746
G01 X40.1665 Y19.3633
G01 X40.2401 Y19.3596
G01 X54.7013 Y19.3597
G01 X54.7736 Y19.3633
G01 X54.8441 Y19.3736
G01 X54.9179 Y19.3920
G01 X54.9895 Y19.4178
G01 X55.0538 Y19.4483
G01 X55.1149 Y19.4848
G01 X55.1761 Y19.5300
G01 X55.2324 Y19.5812
G01 X55.2801 Y19.6340
G01 X55.3226 Y19.6911
G01 X55.3624 Y19.7574
G01 X55.3942 Y19.8251
G01 X55.4181 Y19.8922
G01 X55.4355 Y19.9612
G01 X55.4468 Y20.0365
G01 X55.4504 Y20.1100
G01 X55.4465 Y20.1860
G01 X55.4360 Y20.2564
G01 X55.4188 Y20.3254
G01 X55.3933 Y20.3971
G01 X55.3618 Y20.4637
G01 X55.3240 Y20.5269
G01 X55.2785 Y20.5879
G01 X55.2307 Y20.6406
G01 X55.1780 Y20.6884
G01 X55.1170 Y20.7339
G01 X55.0516 Y20.7729
G01 X54.9872 Y20.8032
G01 X54.9202 Y20.8273
G01 X54.8465 Y20.8459
G01 X54.7724 Y20.8568
G01 X54.7001 Y20.8604
G01 X40.5509 Y20.8604
G01 X35.2729 Y26.1383
G01 X35.2729 Y30.2173
G01 X35.3837 Y30.2837
G01 X35.5040 Y30.3728
G01 X35.6168 Y30.4748
G01 X35.7208 Y30.5892
G01 X35.8114 Y30.7114
G01 X35.8907 Y30.8440
G01 X35.9546 Y30.9793
G01 X36.0051 Y31.1202
G01 X36.0428 Y31.2701
G01 X36.0652 Y31.4218
G01 X36.0726 Y31.5725
G01 X36.0651 Y31.7244
G01 X36.0428 Y31.8750
G01 X36.0058 Y32.0224
G01 X35.9546 Y32.1657
G01 X35.8896 Y32.3032
G01 X35.8114 Y32.4336
G01 X35.7223 Y32.5539
G01 X35.6186 Y32.6685
G01 X35.5059 Y32.7707
G01 X35.3837 Y32.8613
G01 X35.2532 Y32.9395
G01 X35.1157 Y33.0045
G01 X34.9725 Y33.0558
G01 X34.8250 Y33.0927
G01 X34.6769 Y33.1147
G01 X34.5226 Y33.1225
G01 X34.3731 Y33.1152
G01 X34.2178 Y33.0922
G01 X34.0726 Y33.0558
G01 X33.9294 Y33.0045
G01 X33.7919 Y32.9395
G01 X33.6594 Y32.8599
G01 X33.5393 Y32.7707
G01 X33.4266 Y32.6685
G01 X33.3244 Y32.5558
G01 X33.2338 Y32.4336
G01 X33.1556 Y32.3032
G01 X33.0906 Y32.1657
G01 X33.0393 Y32.0224
G01 X33.0024 Y31.8749
G01 X32.9800 Y31.7244
G01 X32.9726 Y31.5725
G01 X32.9800 Y31.4206
G01 X33.0024 Y31.2701
G01 X33.0393 Y31.1226
G01 X33.0906 Y30.9793
G01 X33.1556 Y30.8418
G01 X33.2325 Y30.7134
G00 Z2.0000
G00 X33.2325 Y37.7134
G01 F60.00
G01 Z-0.0000
G01 F120.00
G01 X33.3244 Y37.5892
G01 X33.4266 Y37.4765
G01 X33.5393 Y37.3743
G01 X33.6615 Y37.2837
G01 X33.7919 Y37.2055
G01 X33.9294 Y37.1405
G01 X34.0726 Y37.0892
G01 X34.2202 Y37.0523
G01 X34.3707 Y37.0300
G01 X34.5226 Y37.0225
G01 X34.6745 Y37.0300
G01 X34.8250 Y37.0523
G01 X34.9725 Y37.0892
G01 X35.1157 Y37.1405
G01 X35.2532 Y37.2055
G01 X35.3837 Y37.2837
G01 X35.5059 Y37.3743
G01 X35.6186 Y37.4765
G01 X35.7208 Y37.5892
G01 X35.8114 Y37.7114
G01 X35.8896 Y37.8418
G01 X35.9546 Y37.9793
G01 X36.0058 Y38.1226
G01 X36.0428 Y38.2701
G01 X36.0651 Y38.4206
G01 X36.0726 Y38.5725
G01 X36.0651 Y38.7244
G01 X36.0428 Y38.8750
G01 X36.0058 Y39.0224
G01 X35.9546 Y39.1657
G01 X35.8896 Y39.3032
G01 X35.8114 Y39.4336
G01 X35.7208 Y39.5558
G01 X35.6186 Y39.6685
G01 X35.5059 Y39.7707
G01 X35.3837 Y39.8613
G01 X35.2532 Y39.9395
G01 X35.1157 Y40.0045
G01 X34.9725 Y40.0558
G01 X34.8250 Y40.0927
G01 X34.6745 Y40.1150
G01 X34.5226 Y40.1225
G01 X34.3707 Y40.1150
G01 X34.2201 Y40.0927
G01 X34.0726 Y40.0558
G01 X33.9294 Y40.0045
G01 X33.7919 Y39.9395
G01 X33.6615 Y39.8613
G01 X33.5393 Y39.7707
G01 X33.4266 Y39.6685
G01 X33.3244 Y39.5558
G01 X33.2338 Y39.4336
G01 X33.1556 Y39.3032
G01 X33.0906 Y39.1657
G01 X33.0393 Y39.0224
G01 X33.0024 Y38.8749
G01 X32.9800 Y38.7244
G01 X32.9726 Y38.5725
G01 X32.9800 Y38.4206
G01 X33.0024 Y38.2701
G01 X33.0393 Y38.1226
G01 X33.0906 Y37.9793
G01 X33.1556 Y37.8418
G01 X33.2325 Y37.7134
G00 Z2.0000
G00 X32.5594 Y38.5705
G01 F60.00
G01 Z-0.0000
G01 F120.00
G01 X32.5598 Y38.5328
G01 X32.5837 Y38.2654
G01 X32.6433 Y38.0051
G01 X32.7381 Y37.7545
G01 X32.8651 Y37.5206
G01 X33.0232 Y37.3054
G01 X33.2090 Y37.1136
G01 X33.4192 Y36.9489
G01 X33.6497 Y36.8141
G01 X33.8964 Y36.7120
G01 X34.1547 Y36.6442
G01 X34.4198 Y36.6121
G01 X34.6869 Y36.6163
G01 X34.9500 Y36.6566
G01 X35.2069 Y36.7325
G01 X35.4510 Y36.8429
G01 X35.6765 Y36.9843
G01 X35.8813 Y37.1556
G01 X36.0610 Y37.3531
G01 X36.2123 Y37.5732
G01 X36.3323 Y37.8118
G01 X36.4188 Y38.0644
G01 X36.4664 Y38.3072
G01 X36.4702 Y38.3265
G01 X36.4856 Y38.5931
G01 X36.4646 Y38.8593
G01 X36.4077 Y39.1202
G01 X36.3159 Y39.3710
G01 X36.1910 Y39.6070
G01 X36.0352 Y39.8238
G01 X35.8513 Y40.0175
G01 X35.6422 Y40.1849
G01 X35.4138 Y40.3216
G01 X35.1682 Y40.4264
G01 X34.9106 Y40.4968
G01 X34.6458 Y40.5317
G01 X34.3788 Y40.5303
G01 X34.1144 Y40.4927
G01 X33.8576 Y40.4195
G01 X33.6131 Y40.3122
G01 X33.3854 Y40.1727
G01 X33.1794 Y40.0041
G01 X32.9970 Y39.8079
G01 X32.8434 Y39.5894
G01 X32.7210 Y39.3521
G01 X32.6318 Y39.1004
G01 X32.5777 Y38.8389
G01 X32.5594 Y38.5705
G00 Z2.0000
G00 X42.0076 Y33.6874
G01 F60.00
G01 Z-0.0000
G01 F120.00
G01 X42.3028 Y33.3922
G01 X42.4319 Y33.4695
G01 X42.5672 Y33.5335
G01 X42.7126 Y33.5858
G01 X42.8601 Y33.6227
G01 X43.0082 Y33.6447
G01 X43.1626 Y33.6525
G01 X43.3169 Y33.6447
G01 X43.4650 Y33.6227
G01 X43.6125 Y33.5858
G01 X43.7580 Y33.5335
G01 X43.8932 Y33.4695
G01 X44.0223 Y33.3922
G01 X44.3168 Y33.6867
G01 X44.2847 Y33.7125
G01 X44.2804 Y33.7154
G01 X44.0558 Y33.8498
G01 X44.0512 Y33.8522
G01 X43.8104 Y33.9549
G01 X43.8055 Y33.9566
G01 X43.5530 Y34.0257
G01 X43.5479 Y34.0267
G01 X43.2884 Y34.0609
G01 X43.2832 Y34.0612
G01 X43.0214 Y34.0598
G01 X43.0163 Y34.0594
G01 X42.7571 Y34.0226
G01 X42.7521 Y34.0215
G01 X42.5003 Y33.9498
G01 X42.4954 Y33.9480
G01 X42.2557 Y33.8428
G01 X42.2511 Y33.8404
G01 X42.0279 Y33.7036
G01 X42.0237 Y33.7006
G01 X42.0076 Y33.6874
G00 Z2.0000
G00 X41.5043 Y31.0532
G01 F60.00
G01 Z-0.0000
G01 F120.00
G01 X41.5071 Y31.0488
G01 X41.5799 Y30.9497
G01 X41.8729 Y31.2428
G01 X41.7956 Y31.3718
G01 X41.7316 Y31.5071
G01 X41.6793 Y31.6526
G01 X41.6424 Y31.8001
G01 X41.6203 Y31.9481
G01 X41.6126 Y32.1025
G01 X41.6200 Y32.2544
G01 X41.6419 Y32.4025
G01 X41.6793 Y32.5524
G01 X41.7316 Y32.6979
G01 X41.7956 Y32.8332
G01 X41.8729 Y32.9622
G01 X41.5797 Y33.2555
G01 X41.4853 Y33.1213
G01 X41.4827 Y33.1169
G01 X41.3626 Y32.8842
G01 X41.3606 Y32.8795
G01 X41.2732 Y32.6327
G01 X41.2718 Y32.6278
G01 X41.2187 Y32.3714
G01 X41.2180 Y32.3663
G01 X41.2000 Y32.1026
G01 X41.2004 Y32.0614
G01 X41.2239 Y31.7981
G01 X41.2247 Y31.7930
G01 X41.2832 Y31.5378
G01 X41.2847 Y31.5328
G01 X41.3772 Y31.2879
G01 X41.3794 Y31.2832
G01 X41.5043 Y31.0532
G00 Z2.0000
G00 X42.0089 Y30.5189
G01 F60.00
G01 Z-0.0000
G01 F120.00
G01 X42.0574 Y30.4809
G01 X42.0617 Y30.4780
G01 X42.2877 Y30.3459
G01 X42.2923 Y30.3436
G01 X42.5342 Y30.2434
G01 X42.5391 Y30.2418
G01 X42.7923 Y30.1753
G01 X42.7974 Y30.1744
G01 X43.0573 Y30.1429
G01 X43.0625 Y30.1427
G01 X43.3242 Y30.1468
G01 X43.3294 Y30.1472
G01 X43.5882 Y30.1868
G01 X43.5932 Y30.1879
G01 X43.8442 Y30.2623
G01 X43.8490 Y30.2641
G01 X44.0876 Y30.3718
G01 X44.0922 Y30.3742
G01 X44.3140 Y30.5134
G01 X44.3185 Y30.5167
G01 X44.0223 Y30.8128
G01 X43.8932 Y30.7355
G01 X43.7580 Y30.6715
G01 X43.6125 Y30.6192
G01 X43.4650 Y30.5823
G01 X43.3169 Y30.5603
G01 X43.1626 Y30.5525
G01 X43.0107 Y30.5600
G01 X42.8626 Y30.5819
G01 X42.7126 Y30.6192
G01 X42.5672 Y30.6715
G01 X42.4319 Y30.7355
G01 X42.3028 Y30.8128
G01 X42.0089 Y30.5189
G00 Z2.0000
G00 X44.4523 Y31.2428
G01 F60.00
G01 Z-0.0000
G01 F120.00
G01 X44.7458 Y30.9492
G01 X44.8504 Y31.1013
G01 X44.8530 Y31.1058
G01 X44.9707 Y31.3397
G01 X44.9726 Y31.3444
G01 X45.0575 Y31.5921
G01 X45.0588 Y31.5971
G01 X45.1092 Y31.8540
G01 X45.1098 Y31.8591
G01 X45.1249 Y32.1205
G01 X45.1249 Y32.1256
G01 X45.1043 Y32.3866
G01 X45.1036 Y32.3917
G01 X45.0478 Y32.6475
G01 X45.0463 Y32.6525
G01 X44.9564 Y32.8983
G01 X44.9543 Y32.9030
G01 X44.8318 Y33.1344
G01 X44.8291 Y33.1388
G01 X44.7453 Y33.2553
G01 X44.4523 Y32.9622
G01 X44.5296 Y32.8332
G01 X44.5936 Y32.6979
G01 X44.6458 Y32.5524
G01 X44.6828 Y32.4050
G01 X44.7048 Y32.2569
G01 X44.7126 Y32.1025
G01 X44.7048 Y31.9481
G01 X44.6828 Y31.8001
G01 X44.6458 Y31.6526
G01 X44.5936 Y31.5071
G01 X44.5296 Y31.3718
G01 X44.4523 Y31.2428
G00 Z2.0000
G00 X50.0374 Y28.4727
G01 F60.00
G01 Z-0.0000
G01 F120.00
G01 X50.0826 Y28.4115
G01 X50.1320 Y28.3569
G01 X53.4904 Y24.9986
G01 X53.5441 Y24.9500
G01 X53.6012 Y24.9075
G01 X53.6686 Y24.8671
G01 X53.7329 Y24.8368
G01 X53.8023 Y24.8120
G01 X53.8737 Y24.7941
G01 X53.9453 Y24.7834
G01 X54.0201 Y24.7796
G01 X82.0993 Y24.7796
G01 X83.4747 Y23.4042
G01 X83.4747 Y22.2789
G01 X83.4642 Y22.2364
G01 X83.4535 Y22.1648
G01 X83.4497 Y22.0900
G01 X83.4497 Y18.8100
G01 X83.4533 Y18.7365
G01 X83.4642 Y18.6636
G01 X83.4820 Y18.5922
G01 X83.5060 Y18.5251
G01 X83.5383 Y18.4563
G01 X83.5762 Y18.3931
G01 X83.6201 Y18.3340
G01 X83.6687 Y18.2803
G01 X84.9245 Y17.0244
G01 X84.9800 Y16.9742
G01 X85.0382 Y16.9311
G01 X85.0992 Y16.8945
G01 X85.1702 Y16.8609
G01 X85.2373 Y16.8370
G01 X85.3087 Y16.8191
G01 X85.3815 Y16.8083
G01 X85.4526 Y16.8047
G01 X89.6258 Y16.8046
G01 X89.6998 Y16.7697
G01 X89.7783 Y16.7416
G01 X89.8593 Y16.7213
G01 X89.9430 Y16.7090
G01 X90.0251 Y16.7050
G01 X90.8251 Y16.7050
G01 X90.9060 Y16.7089
G01 X90.9933 Y16.7219
G01 X91.0718 Y16.7416
G01 X91.1504 Y16.7697
G01 X91.2279 Y16.8066
G01 X91.2973 Y16.8483
G01 X91.3643 Y16.8979
G01 X91.4278 Y16.9557
G01 X91.4821 Y17.0158
G01 X91.5318 Y17.0828
G01 X91.5747 Y17.1543
G01 X91.6094 Y17.2275
G01 X91.6388 Y17.3094
G01 X91.6588 Y17.3892
G01 X91.6710 Y17.4717
G01 X91.6751 Y17.5550
G01 X91.6707 Y17.6408
G01 X91.6588 Y17.7208
G01 X91.6377 Y17.8041
G01 X91.6104 Y17.8803
G01 X91.5758 Y17.9535
G01 X91.5331 Y18.0252
G01 X91.4821 Y18.0942
G01 X91.4261 Y18.1560
G01 X91.3643 Y18.2121
G01 X91.2973 Y18.2617
G01 X91.2258 Y18.3046
G01 X91.1504 Y18.3403
G01 X91.0718 Y18.3684
G01 X90.9897 Y18.3889
G01 X90.9084 Y18.4009
G01 X90.8251 Y18.4050
G01 X90.0251 Y18.4050
G01 X89.9442 Y18.4011
G01 X89.8593 Y18.3887
G01 X89.7784 Y18.3684
G01 X89.6998 Y18.3403
G01 X89.6258 Y18.3054
G01 X85.7659 Y18.3054
G01 X84.9504 Y19.1208
G01 X84.9504 Y21.9261
G01 X84.9610 Y21.9686
G01 X84.9717 Y22.0402
G01 X84.9754 Y22.1138
G01 X84.9754 Y23.7150
G01 X84.9718 Y23.7885
G01 X84.9610 Y23.8614
G01 X84.9431 Y23.9328
G01 X84.9188 Y24.0010
G01 X84.8868 Y24.0687
G01 X84.8490 Y24.1319
G01 X84.8051 Y24.1911
G01 X84.7565 Y24.2447
G01 X82.9407 Y26.0606
G01 X82.8842 Y26.1115
G01 X82.8270 Y26.1539
G01 X82.7659 Y26.1905
G01 X82.6972 Y26.2232
G01 X82.6267 Y26.2484
G01 X82.5565 Y26.2659
G01 X82.4861 Y26.2764
G01 X82.4101 Y26.2804
G01 X54.3309 Y26.2804
G01 X51.4129 Y29.1983
G01 X51.4129 Y30.5525
G01 X52.1650 Y30.5526
G01 X52.1735 Y30.5537
G01 X52.1817 Y30.5563
G01 X52.1883 Y30.5596
G01 X52.1952 Y30.5646
G01 X52.2012 Y30.5708
G01 X52.2061 Y30.5779
G01 X52.2097 Y30.5857
G01 X52.2118 Y30.5940
G01 X52.2126 Y30.6025
G01 X52.2126 Y33.6037
G01 X52.2114 Y33.6135
G01 X52.2088 Y33.6216
G01 X52.2042 Y33.6303
G01 X52.1988 Y33.6370
G01 X52.1914 Y33.6434
G01 X52.1840 Y33.6477
G01 X52.1759 Y33.6507
G01 X52.1663 Y33.6524
G01 X49.1626 Y33.6525
G01 X49.1552 Y33.6520
G01 X49.1481 Y33.6503
G01 X49.1412 Y33.6477
G01 X49.1348 Y33.6441
G01 X49.1290 Y33.6395
G01 X49.1239 Y33.6342
G01 X49.1197 Y33.6282
G01 X49.1164 Y33.6216
G01 X49.1135 Y33.6123
G01 X49.1126 Y33.6025
G01 X49.1126 Y30.6025
G01 X49.1133 Y30.5940
G01 X49.1155 Y30.5857
G01 X49.1191 Y30.5779
G01 X49.1239 Y30.5708
G01 X49.1290 Y30.5655
G01 X49.1358 Y30.5603
G01 X49.1435 Y30.5563
G01 X49.1516 Y30.5537
G01 X49.1601 Y30.5526
G01 X49.9122 Y30.5525
G01 X49.9122 Y28.8875
G01 X49.9157 Y28.8164
G01 X49.9267 Y28.7411
G01 X49.9453 Y28.6674
G01 X49.9694 Y28.6004
G01 X49.9997 Y28.5360
G01 X50.0374 Y28.4727
G00 Z2.0000
G00 X54.9818 Y31.0757
G01 F60.00
G01 Z-0.0000
G01 F120.00
G01 X54.9846 Y31.0713
G01 X55.0574 Y30.9722
G01 X55.3504 Y31.2653
G01 X55.2731 Y31.3943
G01 X55.2091 Y31.5296
G01 X55.1568 Y31.6751
G01 X55.1199 Y31.8226
G01 X55.0978 Y31.9706
G01 X55.0901 Y32.1250
G01 X55.0975 Y32.2769
G01 X55.1194 Y32.4250
G01 X55.1568 Y32.5749
G01 X55.2091 Y32.7204
G01 X55.2731 Y32.8557
G01 X55.3504 Y32.9847
G01 X55.0572 Y33.2780
G01 X54.9628 Y33.1438
G01 X54.9602 Y33.1394
G01 X54.8401 Y32.9067
G01 X54.8381 Y32.9020
G01 X54.7507 Y32.6552
G01 X54.7493 Y32.6503
G01 X54.6962 Y32.3939
G01 X54.6955 Y32.3888
G01 X54.6775 Y32.1251
G01 X54.6779 Y32.0839
G01 X54.7014 Y31.8206
G01 X54.7022 Y31.8155
G01 X54.7607 Y31.5603
G01 X54.7622 Y31.5553
G01 X54.8547 Y31.3104
G01 X54.8569 Y31.3057
G01 X54.9818 Y31.0757
G00 Z2.0000
G00 X55.4864 Y30.5414
G01 F60.00
G01 Z-0.0000
G01 F120.00
G01 X55.5349 Y30.5034
G01 X55.5392 Y30.5005
G01 X55.7652 Y30.3684
G01 X55.7698 Y30.3661
G01 X56.0117 Y30.2659
G01 X56.0166 Y30.2643
G01 X56.2698 Y30.1978
G01 X56.2749 Y30.1969
G01 X56.5348 Y30.1654
G01 X56.5400 Y30.1652
G01 X56.8017 Y30.1693
G01 X56.8069 Y30.1697
G01 X57.0657 Y30.2093
G01 X57.0707 Y30.2104
G01 X57.3217 Y30.2848
G01 X57.3265 Y30.2866
G01 X57.5651 Y30.3943
G01 X57.5697 Y30.3967
G01 X57.7915 Y30.5359
G01 X57.7960 Y30.5392
G01 X57.4998 Y30.8353
G01 X57.3707 Y30.7580
G01 X57.2355 Y30.6940
G01 X57.0900 Y30.6417
G01 X56.9425 Y30.6048
G01 X56.7944 Y30.5828
G01 X56.6401 Y30.5750
G01 X56.4857 Y30.5828
G01 X56.3377 Y30.6048
G01 X56.1901 Y30.6417
G01 X56.0447 Y30.6940
G01 X55.9094 Y30.7580
G01 X55.7803 Y30.8353
G01 X55.4864 Y30.5414
G00 Z2.0000
G00 X57.9298 Y31.2653
G01 F60.00
G01 Z-0.0000
G01 F120.00
G01 X58.2233 Y30.9717
G01 X58.3279 Y31.1238
G01 X58.3305 Y31.1283
G01 X58.4482 Y31.3622
G01 X58.4501 Y31.3669
G01 X58.5350 Y31.6146
G01 X58.5363 Y31.6196
G01 X58.5867 Y31.8765
G01 X58.5873 Y31.8816
G01 X58.6024 Y32.1430
G01 X58.6024 Y32.1481
G01 X58.5818 Y32.4091
G01 X58.5811 Y32.4142
G01 X58.5253 Y32.6700
G01 X58.5238 Y32.6750
G01 X58.4339 Y32.9208
G01 X58.4318 Y32.9255
G01 X58.3093 Y33.1569
G01 X58.3066 Y33.1613
G01 X58.2228 Y33.2778
G01 X57.9298 Y32.9847
G01 X58.0071 Y32.8557
G01 X58.0711 Y32.7204
G01 X58.1233 Y32.5749
G01 X58.1603 Y32.4275
G01 X58.1823 Y32.2794
G01 X58.1901 Y32.1250
G01 X58.1823 Y31.9706
G01 X58.1603 Y31.8226
G01 X58.1233 Y31.6751
G01 X58.0711 Y31.5296
G01 X58.0071 Y31.3943
G01 X57.9298 Y31.2653
G00 Z2.0000
G00 X55.4851 Y33.7099
G01 F60.00
G01 Z-0.0000
G01 F120.00
G01 X55.7803 Y33.4147
G01 X55.9094 Y33.4920
G01 X56.0447 Y33.5560
G01 X56.1901 Y33.6083
G01 X56.3377 Y33.6452
G01 X56.4857 Y33.6672
G01 X56.6401 Y33.6750
G01 X56.7944 Y33.6672
G01 X56.9425 Y33.6452
G01 X57.0900 Y33.6083
G01 X57.2355 Y33.5560
G01 X57.3707 Y33.4920
G01 X57.4998 Y33.4147
G01 X57.7943 Y33.7092
G01 X57.7622 Y33.7350
G01 X57.7579 Y33.7379
G01 X57.5333 Y33.8723
G01 X57.5287 Y33.8747
G01 X57.2879 Y33.9774
G01 X57.2830 Y33.9791
G01 X57.0305 Y34.0482
G01 X57.0254 Y34.0492
G01 X56.7659 Y34.0834
G01 X56.7607 Y34.0837
G01 X56.4989 Y34.0823
G01 X56.4938 Y34.0819
G01 X56.2346 Y34.0451
G01 X56.2296 Y34.0440
G01 X55.9778 Y33.9723
G01 X55.9729 Y33.9705
G01 X55.7332 Y33.8653
G01 X55.7286 Y33.8629
G01 X55.5054 Y33.7261
G01 X55.5012 Y33.7231
G01 X55.4851 Y33.7099
G00 Z2.0000
G00 X63.5149 Y28.5152
G01 F60.00
G01 Z-0.0000
G01 F120.00
G01 X63.5601 Y28.4540
G01 X63.6095 Y28.3994
G01 X64.7995 Y27.2094
G01 X64.8528 Y27.1610
G01 X64.9109 Y27.1178
G01 X64.9153 Y27.1148
G01 X64.9764 Y27.0783
G01 X65.0426 Y27.0469
G01 X65.1119 Y27.0221
G01 X65.1809 Y27.0047
G01 X65.1861 Y27.0036
G01 X65.2578 Y26.9932
G01 X65.3297 Y26.9897
G01 X83.0698 Y26.9798
G01 X85.9844 Y24.2040
G01 X86.0147 Y22.1096
G01 X86.0147 Y20.6150
G01 X86.0183 Y20.5415
G01 X86.0289 Y20.4698
G01 X86.0470 Y20.3972
G01 X86.0728 Y20.3256
G01 X86.1033 Y20.2613
G01 X86.1399 Y20.2002
G01 X86.1851 Y20.1390
G01 X86.2345 Y20.0844
G01 X86.7545 Y19.5644
G01 X86.8091 Y19.5150
G01 X86.8703 Y19.4698
G01 X86.9314 Y19.4333
G01 X86.9979 Y19.4018
G01 X87.0673 Y19.3770
G01 X87.1363 Y19.3596
G01 X87.2128 Y19.3482
G01 X87.2851 Y19.3446
G01 X89.6258 Y19.3446
G01 X89.6998 Y19.3097
G01 X89.7783 Y19.2816
G01 X89.8593 Y19.2613
G01 X89.9430 Y19.2490
G01 X90.0251 Y19.2450
G01 X90.8251 Y19.2450
G01 X90.9072 Y19.2490
G01 X90.9933 Y19.2619
G01 X91.0718 Y19.2816
G01 X91.1504 Y19.3097
G01 X91.2279 Y19.3466
G01 X91.2973 Y19.3883
G01 X91.3643 Y19.4379
G01 X91.4278 Y19.4957
G01 X91.4821 Y19.5558
G01 X91.5318 Y19.6228
G01 X91.5758 Y19.6965
G01 X91.6104 Y19.7697
G01 X91.6385 Y19.8483
G01 X91.6588 Y19.9292
G01 X91.6710 Y20.0117
G01 X91.6751 Y20.0950
G01 X91.6710 Y20.1783
G01 X91.6588 Y20.2608
G01 X91.6385 Y20.3416
G01 X91.6104 Y20.4203
G01 X91.5747 Y20.4957
G01 X91.5318 Y20.5672
G01 X91.4821 Y20.6342
G01 X91.4261 Y20.6960
G01 X91.3643 Y20.7521
G01 X91.2973 Y20.8017
G01 X91.2258 Y20.8446
G01 X91.1504 Y20.8803
G01 X91.0695 Y20.9091
G01 X90.9909 Y20.9287
G01 X90.9108 Y20.9406
G01 X90.8263 Y20.9450
G01 X90.0239 Y20.9450
G01 X89.9418 Y20.9409
G01 X89.8569 Y20.9281
G01 X89.7784 Y20.9084
G01 X89.7021 Y20.8812
G01 X89.6258 Y20.8454
G01 X87.5959 Y20.8454
G01 X87.5154 Y20.9258
G01 X87.5154 Y22.1259
G01 X87.4802 Y24.5483
G01 X87.4759 Y24.6119
G01 X87.4748 Y24.6217
G01 X87.4643 Y24.6847
G01 X87.4616 Y24.6967
G01 X87.4449 Y24.7582
G01 X87.4418 Y24.7676
G01 X87.4200 Y24.8249
G01 X87.4156 Y24.8351
G01 X87.3872 Y24.8922
G01 X87.3818 Y24.9018
G01 X87.3492 Y24.9538
G01 X87.3422 Y24.9639
G01 X87.3047 Y25.0125
G01 X87.2983 Y25.0200
G01 X87.2529 Y25.0682
G01 X83.8876 Y28.2734
G01 X83.8668 Y28.2913
G01 X83.8474 Y28.3090
G01 X83.8389 Y28.3154
G01 X83.8308 Y28.3222
G01 X83.8094 Y28.3373
G01 X83.7883 Y28.3530
G01 X83.7793 Y28.3585
G01 X83.7726 Y28.3632
G01 X83.7478 Y28.3775
G01 X83.7252 Y28.3910
G01 X83.7157 Y28.3956
G01 X83.7065 Y28.4007
G01 X83.6825 Y28.4114
G01 X83.6576 Y28.4231
G01 X83.6488 Y28.4263
G01 X83.6391 Y28.4305
G01 X83.6142 Y28.4387
G01 X83.5883 Y28.4479
G01 X83.5792 Y28.4503
G01 X83.5691 Y28.4535
G01 X83.5435 Y28.4592
G01 X83.5181 Y28.4656
G01 X83.5076 Y28.4673
G01 X83.4973 Y28.4695
G01 X83.4712 Y28.4727
G01 X83.4453 Y28.4766
G01 X83.4347 Y28.4772
G01 X83.4254 Y28.4783
G01 X83.3979 Y28.4790
G01 X83.3705 Y28.4803
G01 X65.6411 Y28.4902
G01 X64.8904 Y29.2408
G01 X64.8904 Y30.5750
G01 X65.6425 Y30.5751
G01 X65.6510 Y30.5762
G01 X65.6581 Y30.5784
G01 X65.6647 Y30.5815
G01 X65.6718 Y30.5863
G01 X65.6779 Y30.5923
G01 X65.6823 Y30.5983
G01 X65.6863 Y30.6059
G01 X65.6886 Y30.6129
G01 X65.6897 Y30.6189
G01 X65.6901 Y30.6250
G01 X65.6901 Y33.6250
G01 X65.6897 Y33.6311
G01 X65.6886 Y33.6371
G01 X65.6863 Y33.6441
G01 X65.6836 Y33.6496
G01 X65.6802 Y33.6548
G01 X65.6754 Y33.6604
G01 X65.6708 Y33.6644
G01 X65.6647 Y33.6685
G01 X65.6592 Y33.6712
G01 X65.6534 Y33.6732
G01 X65.6462 Y33.6746
G01 X65.6401 Y33.6750
G01 X62.6401 Y33.6750
G01 X62.6315 Y33.6743
G01 X62.6232 Y33.6721
G01 X62.6154 Y33.6685
G01 X62.6084 Y33.6637
G01 X62.6022 Y33.6577
G01 X62.5972 Y33.6507
G01 X62.5934 Y33.6430
G01 X62.5910 Y33.6348
G01 X62.5901 Y33.6262
G01 X62.5901 Y30.6250
G01 X62.5908 Y30.6165
G01 X62.5930 Y30.6082
G01 X62.5966 Y30.6004
G01 X62.6014 Y30.5933
G01 X62.6065 Y30.5880
G01 X62.6133 Y30.5828
G01 X62.6210 Y30.5788
G01 X62.6291 Y30.5762
G01 X62.6376 Y30.5751
G01 X63.3897 Y30.5750
G01 X63.3897 Y28.9300
G01 X63.3932 Y28.8589
G01 X63.4042 Y28.7836
G01 X63.4228 Y28.7099
G01 X63.4469 Y28.6429
G01 X63.4772 Y28.5785
G01 X63.5149 Y28.5152
G00 Z2.0000
G00 X72.4518 Y31.1107
G01 F60.00
G01 Z-0.0000
G01 F120.00
G01 X72.4546 Y31.1063
G01 X72.5274 Y31.0072
G01 X72.8204 Y31.3003
G01 X72.7431 Y31.4293
G01 X72.6791 Y31.5646
G01 X72.6268 Y31.7101
G01 X72.5899 Y31.8576
G01 X72.5678 Y32.0056
G01 X72.5601 Y32.1600
G01 X72.5675 Y32.3119
G01 X72.5894 Y32.4600
G01 X72.6268 Y32.6099
G01 X72.6791 Y32.7554
G01 X72.7431 Y32.8907
G01 X72.8204 Y33.0197
G01 X72.5272 Y33.3130
G01 X72.4328 Y33.1788
G01 X72.4302 Y33.1744
G01 X72.3101 Y32.9417
G01 X72.3081 Y32.9370
G01 X72.2207 Y32.6902
G01 X72.2193 Y32.6853
G01 X72.1662 Y32.4289
G01 X72.1655 Y32.4238
G01 X72.1475 Y32.1601
G01 X72.1479 Y32.1189
G01 X72.1714 Y31.8556
G01 X72.1722 Y31.8505
G01 X72.2307 Y31.5953
G01 X72.2322 Y31.5903
G01 X72.3247 Y31.3454
G01 X72.3269 Y31.3407
G01 X72.4518 Y31.1107
G00 Z2.0000
G00 X72.9564 Y30.5764
G01 F60.00
G01 Z-0.0000
G01 F120.00
G01 X73.0049 Y30.5384
G01 X73.0092 Y30.5355
G01 X73.2352 Y30.4034
G01 X73.2398 Y30.4011
G01 X73.4817 Y30.3009
G01 X73.4866 Y30.2993
G01 X73.7398 Y30.2328
G01 X73.7449 Y30.2319
G01 X74.0048 Y30.2004
G01 X74.0100 Y30.2002
G01 X74.2717 Y30.2043
G01 X74.2769 Y30.2047
G01 X74.5357 Y30.2443
G01 X74.5407 Y30.2454
G01 X74.7917 Y30.3198
G01 X74.7965 Y30.3216
G01 X75.0351 Y30.4293
G01 X75.0397 Y30.4317
G01 X75.2615 Y30.5709
G01 X75.2660 Y30.5742
G01 X74.9698 Y30.8703
G01 X74.8407 Y30.7930
G01 X74.7055 Y30.7290
G01 X74.5600 Y30.6767
G01 X74.4125 Y30.6398
G01 X74.2644 Y30.6178
G01 X74.1101 Y30.6100
G01 X73.9582 Y30.6175
G01 X73.8101 Y30.6394
G01 X73.6601 Y30.6767
G01 X73.5147 Y30.7290
G01 X73.3794 Y30.7930
G01 X73.2503 Y30.8703
G01 X72.9564 Y30.5764
G00 Z2.0000
G00 X75.3998 Y31.3003
G01 F60.00
G01 Z-0.0000
G01 F120.00
G01 X75.6933 Y31.0067
G01 X75.7979 Y31.1588
G01 X75.8005 Y31.1633
G01 X75.9182 Y31.3972
G01 X75.9201 Y31.4019
G01 X76.0050 Y31.6496
G01 X76.0063 Y31.6546
G01 X76.0567 Y31.9115
G01 X76.0573 Y31.9166
G01 X76.0724 Y32.1780
G01 X76.0724 Y32.1831
G01 X76.0518 Y32.4441
G01 X76.0511 Y32.4492
G01 X75.9953 Y32.7050
G01 X75.9938 Y32.7100
G01 X75.9039 Y32.9558
G01 X75.9018 Y32.9605
G01 X75.7793 Y33.1919
G01 X75.7766 Y33.1963
G01 X75.6928 Y33.3128
G01 X75.3998 Y33.0197
G01 X75.4771 Y32.8907
G01 X75.5411 Y32.7554
G01 X75.5933 Y32.6099
G01 X75.6303 Y32.4625
G01 X75.6523 Y32.3144
G01 X75.6601 Y32.1600
G01 X75.6523 Y32.0056
G01 X75.6303 Y31.8576
G01 X75.5933 Y31.7101
G01 X75.5411 Y31.5646
G01 X75.4771 Y31.4293
G01 X75.3998 Y31.3003
G00 Z2.0000
G00 X72.9551 Y33.7449
G01 F60.00
G01 Z-0.0000
G01 F120.00
G01 X73.2503 Y33.4497
G01 X73.3794 Y33.5270
G01 X73.5147 Y33.5910
G01 X73.6601 Y33.6433
G01 X73.8076 Y33.6802
G01 X73.9557 Y33.7022
G01 X74.1101 Y33.7100
G01 X74.2644 Y33.7022
G01 X74.4125 Y33.6802
G01 X74.5600 Y33.6433
G01 X74.7055 Y33.5910
G01 X74.8407 Y33.5270
G01 X74.9698 Y33.4497
G01 X75.2643 Y33.7442
G01 X75.2322 Y33.7700
G01 X75.2279 Y33.7729
G01 X75.0033 Y33.9073
G01 X74.9987 Y33.9097
G01 X74.7579 Y34.0124
G01 X74.7530 Y34.0141
G01 X74.5005 Y34.0832
G01 X74.4954 Y34.0842
G01 X74.2359 Y34.1184
G01 X74.2307 Y34.1187
G01 X73.9689 Y34.1173
G01 X73.9638 Y34.1169
G01 X73.7046 Y34.0801
G01 X73.6996 Y34.0790
G01 X73.4478 Y34.0073
G01 X73.4429 Y34.0055
G01 X73.2032 Y33.9003
G01 X73.1986 Y33.8979
G01 X72.9754 Y33.7611
G01 X72.9712 Y33.7581
G01 X72.9551 Y33.7449
G00 Z2.0000
G00 X78.6442 Y22.9390
G01 F60.00
G01 Z-0.0000
G01 F120.00
G01 X79.0721 Y22.9390
G01 X79.0803 Y22.9614
G01 X79.1160 Y23.0368
G01 X79.1583 Y23.1072
G01 X79.2073 Y23.1733
G01 X79.2640 Y23.2360
G01 X79.3240 Y23.2905
G01 X79.3949 Y23.3431
G01 X79.4644 Y23.3846
G01 X79.5376 Y23.4193
G01 X79.6207 Y23.4491
G01 X79.6993 Y23.4687
G01 X79.7818 Y23.4809
G01 X79.8639 Y23.4850
G01 X79.9611 Y23.4850
G01 X79.9611 Y23.8930
G01 X79.8085 Y23.8929
G01 X79.6491 Y23.8789
G01 X79.6426 Y23.8778
G01 X79.4364 Y23.8225
G01 X79.4302 Y23.8203
G01 X79.2367 Y23.7300
G01 X79.2310 Y23.7267
G01 X79.0561 Y23.6043
G01 X79.0510 Y23.6000
G01 X78.9001 Y23.4491
G01 X78.8958 Y23.4440
G01 X78.7734 Y23.2691
G01 X78.7701 Y23.2634
G01 X78.6798 Y23.0699
G01 X78.6776 Y23.0637
G01 X78.6442 Y22.9390
G00 Z2.0000
G00 X80.5691 Y23.8930
G01 F60.00
G01 Z-0.0000
G01 F120.00
G01 X80.5691 Y23.4850
G01 X80.6663 Y23.4850
G01 X80.7484 Y23.4809
G01 X80.8309 Y23.4687
G01 X80.9095 Y23.4491
G01 X80.9926 Y23.4193
G01 X81.0658 Y23.3846
G01 X81.1352 Y23.3431
G01 X81.2062 Y23.2905
G01 X81.2661 Y23.2360
G01 X81.3229 Y23.1733
G01 X81.3718 Y23.1072
G01 X81.4141 Y23.0368
G01 X81.4499 Y22.9614
G01 X81.4581 Y22.9390
G01 X81.8860 Y22.9390
G01 X81.8526 Y23.0637
G01 X81.8503 Y23.0699
G01 X81.7601 Y23.2634
G01 X81.7568 Y23.2691
G01 X81.6344 Y23.4440
G01 X81.6301 Y23.4491
G01 X81.4791 Y23.6000
G01 X81.4741 Y23.6043
G01 X81.2992 Y23.7267
G01 X81.2935 Y23.7300
G01 X81.1000 Y23.8203
G01 X81.0938 Y23.8225
G01 X80.8876 Y23.8778
G01 X80.8811 Y23.8789
G01 X80.7216 Y23.8929
G01 X80.5691 Y23.8930
G00 Z2.0000
G00 X75.1407 Y20.9291
G01 F60.00
G01 Z-0.0000
G01 F120.00
G01 X75.0576 Y20.8993
G01 X74.9844 Y20.8646
G01 X74.9129 Y20.8217
G01 X74.8459 Y20.7721
G01 X74.7858 Y20.7177
G01 X74.7265 Y20.6523
G01 X74.6783 Y20.5872
G01 X74.6355 Y20.5157
G01 X74.5998 Y20.4403
G01 X74.5725 Y20.3641
G01 X74.5514 Y20.2808
G01 X74.5395 Y20.2008
G01 X74.5351 Y20.1125
G01 X74.5392 Y20.0317
G01 X74.5514 Y19.9492
G01 X74.5717 Y19.8683
G01 X74.5989 Y19.7920
G01 X74.6367 Y19.7122
G01 X74.6783 Y19.6428
G01 X74.7280 Y19.5758
G01 X74.7840 Y19.5140
G01 X74.8459 Y19.4579
G01 X74.9129 Y19.4083
G01 X74.9823 Y19.3666
G01 X75.0598 Y19.3297
G01 X75.1360 Y19.3024
G01 X75.2217 Y19.2809
G01 X75.3018 Y19.2691
G01 X75.3839 Y19.2650
G01 X76.1875 Y19.2651
G01 X76.2684 Y19.2691
G01 X76.3521 Y19.2816
G01 X76.4330 Y19.3020
G01 X76.5092 Y19.3292
G01 X76.5421 Y19.3446
G01 X79.4658 Y19.3446
G01 X79.5398 Y19.3097
G01 X79.6183 Y19.2816
G01 X79.6993 Y19.2613
G01 X79.7830 Y19.2490
G01 X79.8651 Y19.2450
G01 X80.6651 Y19.2450
G01 X80.7484 Y19.2491
G01 X80.8309 Y19.2613
G01 X80.9095 Y19.2809
G01 X80.9926 Y19.3107
G01 X81.0658 Y19.3454
G01 X81.1373 Y19.3883
G01 X81.2043 Y19.4379
G01 X81.2643 Y19.4923
G01 X81.3237 Y19.5577
G01 X81.3718 Y19.6228
G01 X81.4147 Y19.6943
G01 X81.4504 Y19.7697
G01 X81.4777 Y19.8459
G01 X81.4992 Y19.9316
G01 X81.5110 Y20.0117
G01 X81.5151 Y20.0950
G01 X81.5110 Y20.1783
G01 X81.4988 Y20.2608
G01 X81.4785 Y20.3416
G01 X81.4504 Y20.4203
G01 X81.4147 Y20.4957
G01 X81.3718 Y20.5672
G01 X81.3221 Y20.6342
G01 X81.2661 Y20.6960
G01 X81.2043 Y20.7521
G01 X81.1373 Y20.8017
G01 X81.0658 Y20.8446
G01 X80.9904 Y20.8803
G01 X80.9118 Y20.9084
G01 X80.8285 Y20.9291
G01 X80.7484 Y20.9409
G01 X80.6651 Y20.9450
G01 X79.8651 Y20.9450
G01 X79.7830 Y20.9410
G01 X79.6993 Y20.9287
G01 X79.6184 Y20.9084
G01 X79.5398 Y20.8803
G01 X79.4658 Y20.8454
G01 X76.6181 Y20.8454
G01 X76.5847 Y20.8652
G01 X76.5115 Y20.8998
G01 X76.4306 Y20.9287
G01 X76.3509 Y20.9487
G01 X76.2708 Y20.9606
G01 X76.1863 Y20.9650
G01 X75.3839 Y20.9650
G01 X75.2993 Y20.9606
G01 X75.2193 Y20.9487
G01 X75.1407 Y20.9291
G00 Z2.0000
G00 X75.1407 Y18.3891
G01 F60.00
G01 Z-0.0000
G01 F120.00
G01 X75.0576 Y18.3593
G01 X74.9844 Y18.3246
G01 X74.9129 Y18.2817
G01 X74.8459 Y18.2321
G01 X74.7858 Y18.1777
G01 X74.7265 Y18.1123
G01 X74.6783 Y18.0472
G01 X74.6355 Y17.9757
G01 X74.5998 Y17.9003
G01 X74.5725 Y17.8241
G01 X74.5514 Y17.7408
G01 X74.5395 Y17.6608
G01 X74.5351 Y17.5725
G01 X74.5392 Y17.4917
G01 X74.5514 Y17.4092
G01 X74.5717 Y17.3283
G01 X74.5989 Y17.2520
G01 X74.6367 Y17.1722
G01 X74.6783 Y17.1028
G01 X74.7280 Y17.0358
G01 X74.7840 Y16.9740
G01 X74.8459 Y16.9179
G01 X74.9129 Y16.8683
G01 X74.9823 Y16.8266
G01 X75.0598 Y16.7897
G01 X75.1360 Y16.7624
G01 X75.2217 Y16.7409
G01 X75.3018 Y16.7291
G01 X75.3839 Y16.7250
G01 X76.1875 Y16.7251
G01 X76.2684 Y16.7291
G01 X76.3521 Y16.7416
G01 X76.4330 Y16.7620
G01 X76.5092 Y16.7892
G01 X76.5421 Y16.8046
G01 X79.4658 Y16.8046
G01 X79.5398 Y16.7697
G01 X79.6183 Y16.7416
G01 X79.6993 Y16.7213
G01 X79.7830 Y16.7090
G01 X79.8651 Y16.7050
G01 X80.6651 Y16.7050
G01 X80.7484 Y16.7091
G01 X80.8309 Y16.7213
G01 X80.9095 Y16.7409
G01 X80.9926 Y16.7707
G01 X81.0658 Y16.8054
G01 X81.1373 Y16.8483
G01 X81.2043 Y16.8979
G01 X81.2643 Y16.9523
G01 X81.3237 Y17.0177
G01 X81.3718 Y17.0828
G01 X81.4147 Y17.1543
G01 X81.4504 Y17.2297
G01 X81.4777 Y17.3059
G01 X81.4992 Y17.3916
G01 X81.5110 Y17.4717
G01 X81.5151 Y17.5550
G01 X81.5110 Y17.6383
G01 X81.4988 Y17.7208
G01 X81.4785 Y17.8016
G01 X81.4504 Y17.8803
G01 X81.4147 Y17.9557
G01 X81.3718 Y18.0272
G01 X81.3221 Y18.0942
G01 X81.2661 Y18.1560
G01 X81.2043 Y18.2121
G01 X81.1373 Y18.2617
G01 X81.0658 Y18.3046
G01 X80.9904 Y18.3403
G01 X80.9118 Y18.3684
G01 X80.8285 Y18.3891
G01 X80.7484 Y18.4009
G01 X80.6651 Y18.4050
G01 X79.8651 Y18.4050
G01 X79.7830 Y18.4010
G01 X79.6993 Y18.3887
G01 X79.6184 Y18.3684
G01 X79.5398 Y18.3403
G01 X79.4658 Y18.3054
G01 X76.6181 Y18.3054
G01 X76.5847 Y18.3252
G01 X76.5115 Y18.3598
G01 X76.4306 Y18.3887
G01 X76.3509 Y18.4087
G01 X76.2708 Y18.4206
G01 X76.1863 Y18.4250
G01 X75.3839 Y18.4250
G01 X75.2993 Y18.4206
G01 X75.2193 Y18.4087
G01 X75.1407 Y18.3891
G00 Z2.0000
G00 X75.1407 Y15.8491
G01 F60.00
G01 Z-0.0000
G01 F120.00
G01 X75.0576 Y15.8193
G01 X74.9844 Y15.7846
G01 X74.9129 Y15.7417
G01 X74.8459 Y15.6921
G01 X74.7858 Y15.6377
G01 X74.7265 Y15.5723
G01 X74.6783 Y15.5072
G01 X74.6355 Y15.4357
G01 X74.5998 Y15.3603
G01 X74.5725 Y15.2841
G01 X74.5514 Y15.2008
G01 X74.5395 Y15.1208
G01 X74.5351 Y15.0325
G01 X74.5392 Y14.9517
G01 X74.5514 Y14.8692
G01 X74.5717 Y14.7883
G01 X74.5989 Y14.7120
G01 X74.6367 Y14.6322
G01 X74.6783 Y14.5628
G01 X74.7280 Y14.4958
G01 X74.7840 Y14.4340
G01 X74.8459 Y14.3779
G01 X74.9129 Y14.3283
G01 X74.9823 Y14.2866
G01 X75.0598 Y14.2497
G01 X75.1360 Y14.2224
G01 X75.2217 Y14.2009
G01 X75.3018 Y14.1891
G01 X75.3839 Y14.1850
G01 X76.1875 Y14.1851
G01 X76.2684 Y14.1891
G01 X76.3521 Y14.2016
G01 X76.4330 Y14.2220
G01 X76.5092 Y14.2492
G01 X76.5421 Y14.2646
G01 X79.4658 Y14.2646
G01 X79.5398 Y14.2297
G01 X79.6183 Y14.2016
G01 X79.6993 Y14.1813
G01 X79.7830 Y14.1690
G01 X79.8651 Y14.1650
G01 X80.6651 Y14.1650
G01 X80.7484 Y14.1691
G01 X80.8309 Y14.1813
G01 X80.9095 Y14.2009
G01 X80.9926 Y14.2307
G01 X81.0658 Y14.2654
G01 X81.1373 Y14.3083
G01 X81.2043 Y14.3579
G01 X81.2643 Y14.4123
G01 X81.3237 Y14.4777
G01 X81.3718 Y14.5428
G01 X81.4147 Y14.6143
G01 X81.4504 Y14.6897
G01 X81.4777 Y14.7659
G01 X81.4992 Y14.8516
G01 X81.5110 Y14.9317
G01 X81.5151 Y15.0150
G01 X81.5110 Y15.0983
G01 X81.4988 Y15.1808
G01 X81.4785 Y15.2616
G01 X81.4504 Y15.3403
G01 X81.4147 Y15.4157
G01 X81.3718 Y15.4872
G01 X81.3221 Y15.5542
G01 X81.2661 Y15.6160
G01 X81.2043 Y15.6721
G01 X81.1373 Y15.7217
G01 X81.0658 Y15.7646
G01 X80.9904 Y15.8003
G01 X80.9118 Y15.8284
G01 X80.8285 Y15.8491
G01 X80.7484 Y15.8609
G01 X80.6651 Y15.8650
G01 X79.8651 Y15.8650
G01 X79.7830 Y15.8610
G01 X79.6993 Y15.8487
G01 X79.6184 Y15.8284
G01 X79.5398 Y15.8003
G01 X79.4658 Y15.7654
G01 X76.6181 Y15.7654
G01 X76.5847 Y15.7852
G01 X76.5115 Y15.8198
G01 X76.4306 Y15.8487
G01 X76.3509 Y15.8687
G01 X76.2708 Y15.8806
G01 X76.1863 Y15.8850
G01 X75.3839 Y15.8850
G01 X75.2993 Y15.8806
G01 X75.2193 Y15.8687
G01 X75.1407 Y15.8491
G00 Z2.0000
G00 X75.1407 Y13.3091
G01 F60.00
G01 Z-0.0000
G01 F120.00
G01 X75.0576 Y13.2793
G01 X74.9844 Y13.2446
G01 X74.9129 Y13.2017
G01 X74.8459 Y13.1521
G01 X74.7858 Y13.0977
G01 X74.7265 Y13.0323
G01 X74.6783 Y12.9672
G01 X74.6355 Y12.8957
G01 X74.5998 Y12.8203
G01 X74.5725 Y12.7441
G01 X74.5514 Y12.6608
G01 X74.5395 Y12.5808
G01 X74.5351 Y12.4925
G01 X74.5392 Y12.4117
G01 X74.5514 Y12.3292
G01 X74.5717 Y12.2483
G01 X74.5989 Y12.1720
G01 X74.6367 Y12.0922
G01 X74.6783 Y12.0228
G01 X74.7280 Y11.9558
G01 X74.7840 Y11.8940
G01 X74.8459 Y11.8379
G01 X74.9129 Y11.7883
G01 X74.9823 Y11.7466
G01 X75.0598 Y11.7097
G01 X75.1360 Y11.6824
G01 X75.2217 Y11.6609
G01 X75.3018 Y11.6491
G01 X75.3839 Y11.6450
G01 X76.1875 Y11.6451
G01 X76.2684 Y11.6491
G01 X76.3521 Y11.6616
G01 X76.4330 Y11.6820
G01 X76.5092 Y11.7092
G01 X76.5421 Y11.7246
G01 X79.4658 Y11.7246
G01 X79.5398 Y11.6897
G01 X79.6183 Y11.6616
G01 X79.6993 Y11.6413
G01 X79.7830 Y11.6290
G01 X79.8651 Y11.6250
G01 X80.6651 Y11.6250
G01 X80.7484 Y11.6291
G01 X80.8309 Y11.6413
G01 X80.9095 Y11.6609
G01 X80.9926 Y11.6907
G01 X81.0658 Y11.7254
G01 X81.1373 Y11.7683
G01 X81.2043 Y11.8179
G01 X81.2643 Y11.8723
G01 X81.3237 Y11.9377
G01 X81.3718 Y12.0028
G01 X81.4147 Y12.0743
G01 X81.4504 Y12.1497
G01 X81.4777 Y12.2259
G01 X81.4992 Y12.3116
G01 X81.5110 Y12.3917
G01 X81.5151 Y12.4750
G01 X81.5110 Y12.5583
G01 X81.4988 Y12.6408
G01 X81.4785 Y12.7216
G01 X81.4504 Y12.8003
G01 X81.4147 Y12.8757
G01 X81.3718 Y12.9472
G01 X81.3221 Y13.0142
G01 X81.2661 Y13.0760
G01 X81.2043 Y13.1321
G01 X81.1373 Y13.1817
G01 X81.0658 Y13.2246
G01 X80.9904 Y13.2603
G01 X80.9118 Y13.2884
G01 X80.8285 Y13.3091
G01 X80.7484 Y13.3209
G01 X80.6651 Y13.3250
G01 X79.8651 Y13.3250
G01 X79.7830 Y13.3210
G01 X79.6993 Y13.3087
G01 X79.6184 Y13.2884
G01 X79.5398 Y13.2603
G01 X79.4658 Y13.2254
G01 X76.6181 Y13.2254
G01 X76.5847 Y13.2452
G01 X76.5115 Y13.2798
G01 X76.4306 Y13.3087
G01 X76.3509 Y13.3287
G01 X76.2708 Y13.3406
G01 X76.1863 Y13.3450
G01 X75.3839 Y13.3450
G01 X75.2993 Y13.3406
G01 X75.2193 Y13.3287
G01 X75.1407 Y13.3091
G00 Z2.0000
G00 X75.1407 Y10.7691
G01 F60.00
G01 Z-0.0000
G01 F120.00
G01 X75.0598 Y10.7403
G01 X74.9823 Y10.7034
G01 X74.9129 Y10.6617
G01 X74.8478 Y10.6136
G01 X74.7824 Y10.5543
G01 X74.7280 Y10.4942
G01 X74.6797 Y10.4292
G01 X74.6355 Y10.3557
G01 X74.5989 Y10.2780
G01 X74.5717 Y10.2017
G01 X74.5514 Y10.1208
G01 X74.5392 Y10.0383
G01 X74.5351 Y9.9575
G01 X74.5392 Y9.8717
G01 X74.5520 Y9.7868
G01 X74.5717 Y9.7083
G01 X74.5989 Y9.6320
G01 X74.6355 Y9.5543
G01 X74.6797 Y9.4808
G01 X74.7280 Y9.4158
G01 X74.7824 Y9.3557
G01 X74.8468 Y9.2972
G01 X74.9129 Y9.2483
G01 X74.9823 Y9.2066
G01 X75.0598 Y9.1697
G01 X75.1407 Y9.1409
G01 X75.2193 Y9.1213
G01 X75.3006 Y9.1092
G01 X75.3851 Y9.1050
G01 X76.1851 Y9.1050
G01 X76.2660 Y9.1089
G01 X76.3509 Y9.1213
G01 X76.4318 Y9.1416
G01 X76.5104 Y9.1697
G01 X76.5858 Y9.2054
G01 X76.6573 Y9.2483
G01 X76.7243 Y9.2979
G01 X76.7861 Y9.3540
G01 X76.8429 Y9.4167
G01 X76.8918 Y9.4828
G01 X76.9347 Y9.5543
G01 X76.9704 Y9.6297
G01 X76.9985 Y9.7083
G01 X77.0188 Y9.7892
G01 X77.0310 Y9.8717
G01 X77.0351 Y9.9550
G01 X77.0310 Y10.0383
G01 X77.0188 Y10.1208
G01 X76.9984 Y10.2019
G01 X76.9704 Y10.2803
G01 X76.9347 Y10.3557
G01 X76.8918 Y10.4272
G01 X76.8421 Y10.4942
G01 X76.7861 Y10.5560
G01 X76.7234 Y10.6128
G01 X76.6573 Y10.6617
G01 X76.5879 Y10.7034
G01 X76.5104 Y10.7403
G01 X76.4295 Y10.7691
G01 X76.3509 Y10.7887
G01 X76.2684 Y10.8009
G01 X76.1851 Y10.8050
G01 X75.3839 Y10.8050
G01 X75.2993 Y10.8006
G01 X75.2193 Y10.7887
G01 X75.1407 Y10.7691
G00 Z2.0000
G00 X79.6207 Y10.7491
G01 F60.00
G01 Z-0.0000
G01 F120.00
G01 X79.5398 Y10.7203
G01 X79.4623 Y10.6834
G01 X79.3929 Y10.6417
G01 X79.3278 Y10.5936
G01 X79.2624 Y10.5343
G01 X79.2080 Y10.4742
G01 X79.1597 Y10.4092
G01 X79.1155 Y10.3357
G01 X79.0789 Y10.2580
G01 X79.0517 Y10.1817
G01 X79.0314 Y10.1008
G01 X79.0192 Y10.0183
G01 X79.0151 Y9.9375
G01 X79.0192 Y9.8517
G01 X79.0320 Y9.7668
G01 X79.0517 Y9.6883
G01 X79.0789 Y9.6120
G01 X79.1155 Y9.5343
G01 X79.1597 Y9.4608
G01 X79.2080 Y9.3958
G01 X79.2624 Y9.3357
G01 X79.3268 Y9.2772
G01 X79.3929 Y9.2283
G01 X79.4623 Y9.1866
G01 X79.5398 Y9.1497
G01 X79.6207 Y9.1209
G01 X79.6993 Y9.1013
G01 X79.7806 Y9.0892
G01 X79.8651 Y9.0850
G01 X80.6651 Y9.0850
G01 X80.7460 Y9.0889
G01 X80.8309 Y9.1013
G01 X80.9118 Y9.1216
G01 X80.9904 Y9.1497
G01 X81.0658 Y9.1854
G01 X81.1373 Y9.2283
G01 X81.2043 Y9.2779
G01 X81.2661 Y9.3340
G01 X81.3229 Y9.3967
G01 X81.3718 Y9.4628
G01 X81.4147 Y9.5343
G01 X81.4504 Y9.6097
G01 X81.4785 Y9.6883
G01 X81.4988 Y9.7692
G01 X81.5110 Y9.8517
G01 X81.5151 Y9.9350
G01 X81.5110 Y10.0183
G01 X81.4988 Y10.1008
G01 X81.4784 Y10.1819
G01 X81.4504 Y10.2603
G01 X81.4147 Y10.3357
G01 X81.3718 Y10.4072
G01 X81.3221 Y10.4742
G01 X81.2661 Y10.5360
G01 X81.2034 Y10.5928
G01 X81.1373 Y10.6417
G01 X81.0679 Y10.6834
G01 X80.9904 Y10.7203
G01 X80.9095 Y10.7491
G01 X80.8309 Y10.7687
G01 X80.7484 Y10.7809
G01 X80.6651 Y10.7850
G01 X79.8639 Y10.7850
G01 X79.7793 Y10.7806
G01 X79.6993 Y10.7687
G01 X79.6207 Y10.7491
G00 Z2.0000
G00 X79.6207 Y8.2091
G01 F60.00
G01 Z-0.0000
G01 F120.00
G01 X79.5398 Y8.1803
G01 X79.4623 Y8.1434
G01 X79.3929 Y8.1017
G01 X79.3278 Y8.0536
G01 X79.2624 Y7.9943
G01 X79.2080 Y7.9342
G01 X79.1597 Y7.8692
G01 X79.1155 Y7.7957
G01 X79.0789 Y7.7180
G01 X79.0517 Y7.6417
G01 X79.0314 Y7.5608
G01 X79.0192 Y7.4783
G01 X79.0151 Y7.3975
G01 X79.0192 Y7.3117
G01 X79.0320 Y7.2268
G01 X79.0517 Y7.1483
G01 X79.0789 Y7.0720
G01 X79.1155 Y6.9943
G01 X79.1597 Y6.9208
G01 X79.2080 Y6.8558
G01 X79.2624 Y6.7957
G01 X79.3268 Y6.7372
G01 X79.3929 Y6.6883
G01 X79.4623 Y6.6466
G01 X79.5398 Y6.6097
G01 X79.6207 Y6.5809
G01 X79.6993 Y6.5613
G01 X79.7806 Y6.5492
G01 X79.8651 Y6.5450
G01 X80.6651 Y6.5450
G01 X80.7460 Y6.5489
G01 X80.8309 Y6.5613
G01 X80.9118 Y6.5816
G01 X80.9904 Y6.6097
G01 X81.0658 Y6.6454
G01 X81.1373 Y6.6883
G01 X81.2043 Y6.7379
G01 X81.2661 Y6.7940
G01 X81.3229 Y6.8567
G01 X81.3718 Y6.9228
G01 X81.4147 Y6.9943
G01 X81.4504 Y7.0697
G01 X81.4785 Y7.1483
G01 X81.4988 Y7.2292
G01 X81.5110 Y7.3117
G01 X81.5151 Y7.3950
G01 X81.5110 Y7.4783
G01 X81.4988 Y7.5608
G01 X81.4784 Y7.6419
G01 X81.4504 Y7.7203
G01 X81.4147 Y7.7957
G01 X81.3718 Y7.8672
G01 X81.3221 Y7.9342
G01 X81.2661 Y7.9960
G01 X81.2034 Y8.0528
G01 X81.1373 Y8.1017
G01 X81.0679 Y8.1434
G01 X80.9904 Y8.1803
G01 X80.9095 Y8.2091
G01 X80.8309 Y8.2287
G01 X80.7484 Y8.2409
G01 X80.6651 Y8.2450
G01 X79.8639 Y8.2450
G01 X79.7793 Y8.2406
G01 X79.6993 Y8.2287
G01 X79.6207 Y8.2091
G00 Z2.0000
G00 X79.0151 Y4.0550
G01 F60.00
G01 Z-0.0000
G01 F120.00
G01 X79.0160 Y4.0452
G01 X79.0189 Y4.0359
G01 X79.0228 Y4.0283
G01 X79.0289 Y4.0205
G01 X79.0363 Y4.0141
G01 X79.0448 Y4.0093
G01 X79.0541 Y4.0062
G01 X79.0639 Y4.0050
G01 X81.4651 Y4.0050
G01 X81.4724 Y4.0055
G01 X81.4796 Y4.0072
G01 X81.4865 Y4.0098
G01 X81.4929 Y4.0134
G01 X81.4977 Y4.0171
G01 X81.5021 Y4.0214
G01 X81.5060 Y4.0262
G01 X81.5092 Y4.0314
G01 X81.5117 Y4.0370
G01 X81.5136 Y4.0429
G01 X81.5147 Y4.0489
G01 X81.5151 Y4.0550
G01 X81.5151 Y5.6550
G01 X81.5145 Y5.6623
G01 X81.5129 Y5.6695
G01 X81.5103 Y5.6764
G01 X81.5067 Y5.6828
G01 X81.5029 Y5.6877
G01 X81.4987 Y5.6920
G01 X81.4939 Y5.6959
G01 X81.4887 Y5.6991
G01 X81.4831 Y5.7016
G01 X81.4772 Y5.7035
G01 X81.4712 Y5.7046
G01 X81.4651 Y5.7050
G01 X79.0651 Y5.7050
G01 X79.0577 Y5.7045
G01 X79.0506 Y5.7028
G01 X79.0437 Y5.7002
G01 X79.0373 Y5.6966
G01 X79.0324 Y5.6929
G01 X79.0289 Y5.6895
G01 X79.0249 Y5.6848
G01 X79.0216 Y5.6796
G01 X79.0189 Y5.6741
G01 X79.0169 Y5.6683
G01 X79.0156 Y5.6623
G01 X79.0151 Y5.6562
G01 X79.0151 Y4.0550
G00 Z2.0000
G00 X89.7807 Y5.6691
G01 F60.00
G01 Z-0.0000
G01 F120.00
G01 X89.6998 Y5.6403
G01 X89.6223 Y5.6034
G01 X89.5529 Y5.5617
G01 X89.4878 Y5.5136
G01 X89.4224 Y5.4543
G01 X89.3680 Y5.3942
G01 X89.3197 Y5.3292
G01 X89.2755 Y5.2557
G01 X89.2389 Y5.1780
G01 X89.2117 Y5.1017
G01 X89.1914 Y5.0208
G01 X89.1792 Y4.9383
G01 X89.1751 Y4.8575
G01 X89.1792 Y4.7717
G01 X89.1920 Y4.6868
G01 X89.2117 Y4.6083
G01 X89.2389 Y4.5320
G01 X89.2755 Y4.4543
G01 X89.3197 Y4.3808
G01 X89.3680 Y4.3158
G01 X89.4224 Y4.2557
G01 X89.4868 Y4.1972
G01 X89.5529 Y4.1483
G01 X89.6223 Y4.1066
G01 X89.6998 Y4.0697
G01 X89.7807 Y4.0409
G01 X89.8593 Y4.0213
G01 X89.9406 Y4.0092
G01 X90.0251 Y4.0050
G01 X90.8251 Y4.0050
G01 X90.9060 Y4.0089
G01 X90.9909 Y4.0213
G01 X91.0718 Y4.0416
G01 X91.1504 Y4.0697
G01 X91.2258 Y4.1054
G01 X91.2973 Y4.1483
G01 X91.3643 Y4.1979
G01 X91.4261 Y4.2540
G01 X91.4829 Y4.3167
G01 X91.5318 Y4.3828
G01 X91.5747 Y4.4543
G01 X91.6104 Y4.5297
G01 X91.6385 Y4.6083
G01 X91.6588 Y4.6892
G01 X91.6710 Y4.7717
G01 X91.6751 Y4.8550
G01 X91.6710 Y4.9383
G01 X91.6588 Y5.0208
G01 X91.6384 Y5.1019
G01 X91.6104 Y5.1803
G01 X91.5747 Y5.2557
G01 X91.5318 Y5.3272
G01 X91.4821 Y5.3942
G01 X91.4261 Y5.4560
G01 X91.3634 Y5.5128
G01 X91.2973 Y5.5617
G01 X91.2279 Y5.6034
G01 X91.1504 Y5.6403
G01 X91.0695 Y5.6691
G01 X90.9909 Y5.6887
G01 X90.9084 Y5.7009
G01 X90.8251 Y5.7050
G01 X90.0239 Y5.7050
G01 X89.9393 Y5.7006
G01 X89.8593 Y5.6887
G01 X89.7807 Y5.6691
G00 Z2.0000
G00 X89.7807 Y8.2091
G01 F60.00
G01 Z-0.0000
G01 F120.00
G01 X89.6998 Y8.1803
G01 X89.6223 Y8.1434
G01 X89.5529 Y8.1017
G01 X89.4878 Y8.0536
G01 X89.4224 Y7.9943
G01 X89.3680 Y7.9342
G01 X89.3197 Y7.8692
G01 X89.2755 Y7.7957
G01 X89.2389 Y7.7180
G01 X89.2117 Y7.6417
G01 X89.1914 Y7.5608
G01 X89.1792 Y7.4783
G01 X89.1751 Y7.3975
G01 X89.1792 Y7.3117
G01 X89.1920 Y7.2268
G01 X89.2117 Y7.1483
G01 X89.2389 Y7.0720
G01 X89.2755 Y6.9943
G01 X89.3197 Y6.9208
G01 X89.3680 Y6.8558
G01 X89.4224 Y6.7957
G01 X89.4868 Y6.7372
G01 X89.5529 Y6.6883
G01 X89.6223 Y6.6466
G01 X89.6998 Y6.6097
G01 X89.7807 Y6.5809
G01 X89.8593 Y6.5613
G01 X89.9406 Y6.5492
G01 X90.0251 Y6.5450
G01 X90.8251 Y6.5450
G01 X90.9060 Y6.5489
G01 X90.9909 Y6.5613
G01 X91.0718 Y6.5816
G01 X91.1504 Y6.6097
G01 X91.2258 Y6.6454
G01 X91.2973 Y6.6883
G01 X91.3643 Y6.7379
G01 X91.4261 Y6.7940
G01 X91.4829 Y6.8567
G01 X91.5318 Y6.9228
G01 X91.5747 Y6.9943
G01 X91.6104 Y7.0697
G01 X91.6385 Y7.1483
G01 X91.6588 Y7.2292
G01 X91.6710 Y7.3117
G01 X91.6751 Y7.3950
G01 X91.6710 Y7.4783
G01 X91.6588 Y7.5608
G01 X91.6384 Y7.6419
G01 X91.6104 Y7.7203
G01 X91.5747 Y7.7957
G01 X91.5318 Y7.8672
G01 X91.4821 Y7.9342
G01 X91.4261 Y7.9960
G01 X91.3634 Y8.0528
G01 X91.2973 Y8.1017
G01 X91.2279 Y8.1434
G01 X91.1504 Y8.1803
G01 X91.0695 Y8.2091
G01 X90.9909 Y8.2287
G01 X90.9084 Y8.2409
G01 X90.8251 Y8.2450
G01 X90.0239 Y8.2450
G01 X89.9393 Y8.2406
G01 X89.8593 Y8.2287
G01 X89.7807 Y8.2091
G00 Z2.0000
G00 X89.7807 Y10.7491
G01 F60.00
G01 Z-0.0000
G01 F120.00
G01 X89.6998 Y10.7203
G01 X89.6223 Y10.6834
G01 X89.5529 Y10.6417
G01 X89.4878 Y10.5936
G01 X89.4224 Y10.5343
G01 X89.3680 Y10.4742
G01 X89.3197 Y10.4092
G01 X89.2755 Y10.3357
G01 X89.2389 Y10.2580
G01 X89.2117 Y10.1817
G01 X89.1914 Y10.1008
G01 X89.1792 Y10.0183
G01 X89.1751 Y9.9375
G01 X89.1792 Y9.8517
G01 X89.1920 Y9.7668
G01 X89.2117 Y9.6883
G01 X89.2389 Y9.6120
G01 X89.2755 Y9.5343
G01 X89.3197 Y9.4608
G01 X89.3680 Y9.3958
G01 X89.4224 Y9.3357
G01 X89.4868 Y9.2772
G01 X89.5529 Y9.2283
G01 X89.6223 Y9.1866
G01 X89.6998 Y9.1497
G01 X89.7807 Y9.1209
G01 X89.8593 Y9.1013
G01 X89.9406 Y9.0892
G01 X90.0251 Y9.0850
G01 X90.8251 Y9.0850
G01 X90.9060 Y9.0889
G01 X90.9909 Y9.1013
G01 X91.0718 Y9.1216
G01 X91.1504 Y9.1497
G01 X91.2258 Y9.1854
G01 X91.2973 Y9.2283
G01 X91.3643 Y9.2779
G01 X91.4261 Y9.3340
G01 X91.4829 Y9.3967
G01 X91.5318 Y9.4628
G01 X91.5747 Y9.5343
G01 X91.6104 Y9.6097
G01 X91.6385 Y9.6883
G01 X91.6588 Y9.7692
G01 X91.6710 Y9.8517
G01 X91.6751 Y9.9350
G01 X91.6710 Y10.0183
G01 X91.6588 Y10.1008
G01 X91.6384 Y10.1819
G01 X91.6104 Y10.2603
G01 X91.5747 Y10.3357
G01 X91.5318 Y10.4072
G01 X91.4821 Y10.4742
G01 X91.4261 Y10.5360
G01 X91.3634 Y10.5928
G01 X91.2973 Y10.6417
G01 X91.2279 Y10.6834
G01 X91.1504 Y10.7203
G01 X91.0695 Y10.7491
G01 X90.9909 Y10.7687
G01 X90.9084 Y10.7809
G01 X90.8251 Y10.7850
G01 X90.0239 Y10.7850
G01 X89.9393 Y10.7806
G01 X89.8593 Y10.7687
G01 X89.7807 Y10.7491
G00 Z2.0000
G00 X89.7807 Y13.2891
G01 F60.00
G01 Z-0.0000
G01 F120.00
G01 X89.6976 Y13.2593
G01 X89.6244 Y13.2246
G01 X89.5529 Y13.1817
G01 X89.4859 Y13.1321
G01 X89.4258 Y13.0777
G01 X89.3680 Y13.0142
G01 X89.3170 Y12.9452
G01 X89.2755 Y12.8757
G01 X89.2398 Y12.8003
G01 X89.2110 Y12.7194
G01 X89.1914 Y12.6408
G01 X89.1792 Y12.5583
G01 X89.1751 Y12.4725
G01 X89.1792 Y12.3917
G01 X89.1914 Y12.3092
G01 X89.2117 Y12.2283
G01 X89.2389 Y12.1520
G01 X89.2755 Y12.0743
G01 X89.3197 Y12.0008
G01 X89.3680 Y11.9358
G01 X89.4240 Y11.8740
G01 X89.4878 Y11.8164
G01 X89.5529 Y11.7683
G01 X89.6233 Y11.7260
G01 X89.6998 Y11.6897
G01 X89.7783 Y11.6616
G01 X89.8593 Y11.6413
G01 X89.9430 Y11.6290
G01 X90.0251 Y11.6250
G01 X90.8251 Y11.6250
G01 X90.9084 Y11.6291
G01 X90.9933 Y11.6419
G01 X91.0718 Y11.6616
G01 X91.1481 Y11.6888
G01 X91.2244 Y11.7246
G01 X92.2263 Y11.7247
G01 X92.3011 Y11.7286
G01 X92.3715 Y11.7391
G01 X92.4417 Y11.7566
G01 X92.5122 Y11.7818
G01 X92.5809 Y11.8145
G01 X92.6419 Y11.8511
G01 X92.6992 Y11.8935
G01 X92.7557 Y11.9444
G01 X95.3415 Y14.5303
G01 X95.3901 Y14.5840
G01 X95.4353 Y14.6452
G01 X95.4718 Y14.7063
G01 X95.5023 Y14.7706
G01 X95.5278 Y14.8410
G01 X95.5464 Y14.9160
G01 X95.5568 Y14.9865
G01 X95.5604 Y15.0600
G01 X95.5604 Y28.9766
G01 X95.5642 Y28.9851
G01 X95.5881 Y29.0522
G01 X95.6060 Y29.1236
G01 X95.6168 Y29.1965
G01 X95.6204 Y29.2675
G01 X95.6204 Y30.6000
G01 X96.3725 Y30.6001
G01 X96.3810 Y30.6012
G01 X96.3881 Y30.6034
G01 X96.3947 Y30.6065
G01 X96.4018 Y30.6113
G01 X96.4079 Y30.6173
G01 X96.4123 Y30.6233
G01 X96.4163 Y30.6309
G01 X96.4186 Y30.6379
G01 X96.4197 Y30.6439
G01 X96.4201 Y30.6500
G01 X96.4201 Y33.6500
G01 X96.4195 Y33.6573
G01 X96.4176 Y33.6657
G01 X96.4147 Y33.6725
G01 X96.4102 Y33.6798
G01 X96.4054 Y33.6854
G01 X96.3989 Y33.6909
G01 X96.3926 Y33.6947
G01 X96.3858 Y33.6975
G01 X96.3774 Y33.6995
G01 X96.3701 Y33.7000
G01 X93.3689 Y33.7000
G01 X93.3603 Y33.6990
G01 X93.3521 Y33.6966
G01 X93.3433 Y33.6922
G01 X93.3365 Y33.6870
G01 X93.3299 Y33.6798
G01 X93.3254 Y33.6725
G01 X93.3222 Y33.6645
G01 X93.3205 Y33.6561
G01 X93.3201 Y33.6500
G01 X93.3201 Y30.6500
G01 X93.3205 Y30.6439
G01 X93.3216 Y30.6379
G01 X93.3239 Y30.6309
G01 X93.3278 Y30.6233
G01 X93.3330 Y30.6164
G01 X93.3384 Y30.6113
G01 X93.3454 Y30.6065
G01 X93.3521 Y30.6034
G01 X93.3591 Y30.6012
G01 X93.3676 Y30.6001
G01 X94.1197 Y30.6000
G01 X94.1197 Y29.5034
G01 X94.1160 Y29.4949
G01 X94.0920 Y29.4278
G01 X94.0742 Y29.3564
G01 X94.0633 Y29.2835
G01 X94.0597 Y29.2100
G01 X94.0597 Y15.3708
G01 X91.9143 Y13.2254
G01 X91.2244 Y13.2254
G01 X91.1481 Y13.2612
G01 X91.0718 Y13.2884
G01 X90.9933 Y13.3081
G01 X90.9084 Y13.3209
G01 X90.8263 Y13.3250
G01 X90.0239 Y13.3250
G01 X89.9393 Y13.3206
G01 X89.8593 Y13.3087
G01 X89.7807 Y13.2891
G00 Z2.0000
G00 X89.7807 Y15.8291
G01 F60.00
G01 Z-0.0000
G01 F120.00
G01 X89.6998 Y15.8003
G01 X89.6244 Y15.7646
G01 X89.5529 Y15.7217
G01 X89.4840 Y15.6705
G01 X89.4224 Y15.6143
G01 X89.3680 Y15.5542
G01 X89.3197 Y15.4892
G01 X89.2755 Y15.4157
G01 X89.2389 Y15.3380
G01 X89.2110 Y15.2594
G01 X89.1914 Y15.1808
G01 X89.1795 Y15.1008
G01 X89.1751 Y15.0150
G01 X89.1792 Y14.9317
G01 X89.1914 Y14.8492
G01 X89.2125 Y14.7659
G01 X89.2398 Y14.6897
G01 X89.2743 Y14.6165
G01 X89.3177 Y14.5438
G01 X89.3680 Y14.4758
G01 X89.4240 Y14.4140
G01 X89.4859 Y14.3579
G01 X89.5508 Y14.3097
G01 X89.6266 Y14.2643
G01 X89.6998 Y14.2297
G01 X89.7807 Y14.2009
G01 X89.8593 Y14.1813
G01 X89.9393 Y14.1694
G01 X90.0239 Y14.1650
G01 X90.8263 Y14.1650
G01 X90.9084 Y14.1691
G01 X90.9933 Y14.1819
G01 X91.0718 Y14.2016
G01 X91.1481 Y14.2288
G01 X91.2244 Y14.2646
G01 X91.8963 Y14.2647
G01 X91.9686 Y14.2683
G01 X92.0391 Y14.2786
G01 X92.1129 Y14.2970
G01 X92.1822 Y14.3218
G01 X92.2488 Y14.3533
G01 X92.3099 Y14.3898
G01 X92.3711 Y14.4350
G01 X92.4257 Y14.4844
G01 X93.5815 Y15.6403
G01 X93.6301 Y15.6940
G01 X93.6753 Y15.7552
G01 X93.7129 Y15.8185
G01 X93.7433 Y15.8829
G01 X93.7674 Y15.9499
G01 X93.7864 Y16.0260
G01 X93.7968 Y16.0965
G01 X93.8004 Y16.1700
G01 X93.8004 Y26.7700
G01 X93.7965 Y26.8460
G01 X93.7860 Y26.9164
G01 X93.7688 Y26.9854
G01 X93.7433 Y27.0571
G01 X93.7118 Y27.1237
G01 X93.6726 Y27.1889
G01 X93.6301 Y27.2461
G01 X93.5815 Y27.2997
G01 X92.1398 Y28.7414
G01 X92.0861 Y28.7900
G01 X92.0290 Y28.8325
G01 X91.9638 Y28.8717
G01 X91.8949 Y28.9041
G01 X91.8279 Y28.9280
G01 X91.7577 Y28.9457
G01 X91.6836 Y28.9567
G01 X91.6101 Y28.9604
G01 X85.8709 Y28.9604
G01 X83.1601 Y31.6712
G01 X83.1601 Y33.6600
G01 X83.1598 Y33.6649
G01 X83.1589 Y33.6710
G01 X83.1572 Y33.6768
G01 X83.1553 Y33.6814
G01 X83.1530 Y33.6857
G01 X83.1495 Y33.6908
G01 X83.1463 Y33.6945
G01 X83.1418 Y33.6987
G01 X83.1347 Y33.7035
G01 X83.1269 Y33.7071
G01 X83.1186 Y33.7093
G01 X83.1101 Y33.7100
G01 X80.1101 Y33.7100
G01 X80.1040 Y33.7096
G01 X80.0979 Y33.7085
G01 X80.0921 Y33.7066
G01 X80.0865 Y33.7041
G01 X80.0813 Y33.7009
G01 X80.0756 Y33.6962
G01 X80.0714 Y33.6917
G01 X80.0672 Y33.6857
G01 X80.0639 Y33.6791
G01 X80.0619 Y33.6733
G01 X80.0606 Y33.6673
G01 X80.0601 Y33.6600
G01 X80.0601 Y30.6600
G01 X80.0608 Y30.6515
G01 X80.0630 Y30.6432
G01 X80.0666 Y30.6354
G01 X80.0714 Y30.6283
G01 X80.0747 Y30.6246
G01 X80.0793 Y30.6206
G01 X80.0833 Y30.6178
G01 X80.0887 Y30.6148
G01 X80.0932 Y30.6129
G01 X80.0991 Y30.6112
G01 X80.1052 Y30.6102
G01 X80.1101 Y30.6100
G01 X82.0989 Y30.6100
G01 X85.0295 Y27.6794
G01 X85.0860 Y27.6285
G01 X85.1432 Y27.5861
G01 X85.2042 Y27.5495
G01 X85.2729 Y27.5168
G01 X85.3446 Y27.4913
G01 X85.4137 Y27.4741
G01 X85.4841 Y27.4636
G01 X85.5589 Y27.4597
G01 X91.2993 Y27.4596
G01 X92.2997 Y26.4592
G01 X92.2997 Y16.4808
G01 X91.5843 Y15.7654
G01 X91.2244 Y15.7654
G01 X91.1481 Y15.8012
G01 X91.0718 Y15.8284
G01 X90.9933 Y15.8481
G01 X90.9084 Y15.8609
G01 X90.8263 Y15.8650
G01 X90.0239 Y15.8650
G01 X89.9393 Y15.8606
G01 X89.8593 Y15.8487
G01 X89.7807 Y15.8291
G00 Z2.0000
G00 X89.6747 Y23.4085
G01 F60.00
G01 Z-0.0000
G01 F120.00
G01 X89.6244 Y23.3846
G01 X89.5539 Y23.3424
G01 X89.4849 Y23.2913
G01 X89.4224 Y23.2343
G01 X89.3680 Y23.1742
G01 X89.3190 Y23.1082
G01 X89.2755 Y23.0357
G01 X89.2389 Y22.9580
G01 X89.2117 Y22.8817
G01 X89.1920 Y22.8032
G01 X89.1793 Y22.7195
G01 X89.1751 Y22.6350
G01 X89.1795 Y22.5492
G01 X89.1914 Y22.4692
G01 X89.2110 Y22.3906
G01 X89.2398 Y22.3097
G01 X89.2755 Y22.2343
G01 X89.3197 Y22.1608
G01 X89.3680 Y22.0958
G01 X89.4224 Y22.0357
G01 X89.4849 Y21.9787
G01 X89.5529 Y21.9283
G01 X89.6223 Y21.8866
G01 X89.7021 Y21.8488
G01 X89.7783 Y21.8216
G01 X89.8593 Y21.8013
G01 X89.9418 Y21.7891
G01 X90.0251 Y21.7850
G01 X90.8251 Y21.7850
G01 X90.9108 Y21.7894
G01 X90.9909 Y21.8013
G01 X91.0695 Y21.8209
G01 X91.1504 Y21.8497
G01 X91.2258 Y21.8854
G01 X91.2952 Y21.9269
G01 X91.3653 Y21.9787
G01 X91.4278 Y22.0357
G01 X91.4821 Y22.0958
G01 X91.5304 Y22.1608
G01 X91.5747 Y22.2343
G01 X91.6104 Y22.3097
G01 X91.6391 Y22.3906
G01 X91.6588 Y22.4692
G01 X91.6707 Y22.5492
G01 X91.6751 Y22.6350
G01 X91.6709 Y22.7195
G01 X91.6582 Y22.8032
G01 X91.6385 Y22.8816
G01 X91.6113 Y22.9580
G01 X91.5747 Y23.0357
G01 X91.5311 Y23.1082
G01 X91.4821 Y23.1742
G01 X91.4278 Y23.2343
G01 X91.3653 Y23.2913
G01 X91.2963 Y23.3424
G01 X91.2258 Y23.3846
G01 X91.1754 Y23.4085
G01 X91.1754 Y23.6742
G01 X91.9224 Y24.4212
G01 X91.9701 Y24.4740
G01 X92.0139 Y24.5331
G01 X92.0518 Y24.5963
G01 X92.0828 Y24.6617
G01 X92.1088 Y24.7346
G01 X92.1260 Y24.8036
G01 X92.1368 Y24.8765
G01 X92.1404 Y24.9525
G01 X92.1368 Y25.0235
G01 X92.1264 Y25.0940
G01 X92.1081 Y25.1678
G01 X92.0823 Y25.2394
G01 X92.0518 Y25.3037
G01 X92.0153 Y25.3648
G01 X91.9693 Y25.4270
G01 X91.9207 Y25.4806
G01 X91.8661 Y25.5300
G01 X91.8070 Y25.5739
G01 X91.7438 Y25.6117
G01 X91.6772 Y25.6432
G01 X91.6079 Y25.6680
G01 X91.5365 Y25.6859
G01 X91.4636 Y25.6967
G01 X91.3901 Y25.7004
G01 X91.3165 Y25.6967
G01 X91.2437 Y25.6859
G01 X91.1723 Y25.6680
G01 X91.1029 Y25.6432
G01 X91.0364 Y25.6117
G01 X90.9732 Y25.5739
G01 X90.9131 Y25.5292
G01 X90.8595 Y25.4806
G01 X89.8937 Y24.5147
G01 X89.8435 Y24.4591
G01 X89.8012 Y24.4019
G01 X89.7645 Y24.3408
G01 X89.7319 Y24.2721
G01 X89.7070 Y24.2028
G01 X89.6892 Y24.1314
G01 X89.6783 Y24.0585
G01 X89.6747 Y23.9850
G01 X89.6747 Y23.4085
G00 Z2.0000
G00 X88.6598 Y31.2903
G01 F60.00
G01 Z-0.0000
G01 F120.00
G01 X88.9533 Y30.9967
G01 X89.0579 Y31.1488
G01 X89.0605 Y31.1533
G01 X89.1782 Y31.3872
G01 X89.1801 Y31.3919
G01 X89.2650 Y31.6396
G01 X89.2663 Y31.6446
G01 X89.3167 Y31.9015
G01 X89.3173 Y31.9066
G01 X89.3324 Y32.1680
G01 X89.3324 Y32.1731
G01 X89.3118 Y32.4341
G01 X89.3111 Y32.4392
G01 X89.2553 Y32.6950
G01 X89.2538 Y32.7000
G01 X89.1639 Y32.9458
G01 X89.1618 Y32.9505
G01 X89.0393 Y33.1819
G01 X89.0366 Y33.1863
G01 X88.9528 Y33.3028
G01 X88.6598 Y33.0097
G01 X88.7371 Y32.8807
G01 X88.8011 Y32.7454
G01 X88.8533 Y32.5999
G01 X88.8903 Y32.4525
G01 X88.9123 Y32.3044
G01 X88.9201 Y32.1500
G01 X88.9123 Y31.9956
G01 X88.8903 Y31.8476
G01 X88.8533 Y31.7001
G01 X88.8011 Y31.5546
G01 X88.7371 Y31.4193
G01 X88.6598 Y31.2903
G00 Z2.0000
G00 X86.2164 Y30.5664
G01 F60.00
G01 Z-0.0000
G01 F120.00
G01 X86.2649 Y30.5284
G01 X86.2692 Y30.5255
G01 X86.4952 Y30.3934
G01 X86.4998 Y30.3911
G01 X86.7417 Y30.2909
G01 X86.7466 Y30.2893
G01 X86.9998 Y30.2228
G01 X87.0049 Y30.2219
G01 X87.2648 Y30.1904
G01 X87.2700 Y30.1902
G01 X87.5317 Y30.1943
G01 X87.5369 Y30.1947
G01 X87.7957 Y30.2343
G01 X87.8007 Y30.2354
G01 X88.0517 Y30.3098
G01 X88.0565 Y30.3116
G01 X88.2951 Y30.4193
G01 X88.2997 Y30.4217
G01 X88.5215 Y30.5609
G01 X88.5260 Y30.5642
G01 X88.2298 Y30.8603
G01 X88.1007 Y30.7830
G01 X87.9655 Y30.7190
G01 X87.8200 Y30.6667
G01 X87.6725 Y30.6298
G01 X87.5244 Y30.6078
G01 X87.3701 Y30.6000
G01 X87.2182 Y30.6075
G01 X87.0701 Y30.6294
G01 X86.9201 Y30.6667
G01 X86.7747 Y30.7190
G01 X86.6394 Y30.7830
G01 X86.5103 Y30.8603
G01 X86.2164 Y30.5664
G00 Z2.0000
G00 X85.7118 Y31.1007
G01 F60.00
G01 Z-0.0000
G01 F120.00
G01 X85.7146 Y31.0963
G01 X85.7874 Y30.9972
G01 X86.0804 Y31.2903
G01 X86.0031 Y31.4193
G01 X85.9391 Y31.5546
G01 X85.8868 Y31.7001
G01 X85.8499 Y31.8476
G01 X85.8278 Y31.9956
G01 X85.8201 Y32.1500
G01 X85.8275 Y32.3019
G01 X85.8494 Y32.4500
G01 X85.8868 Y32.5999
G01 X85.9391 Y32.7454
G01 X86.0031 Y32.8807
G01 X86.0804 Y33.0097
G01 X85.7872 Y33.3030
G01 X85.6928 Y33.1688
G01 X85.6902 Y33.1644
G01 X85.5701 Y32.9317
G01 X85.5681 Y32.9270
G01 X85.4807 Y32.6802
G01 X85.4793 Y32.6753
G01 X85.4262 Y32.4189
G01 X85.4255 Y32.4138
G01 X85.4075 Y32.1501
G01 X85.4079 Y32.1089
G01 X85.4314 Y31.8456
G01 X85.4322 Y31.8405
G01 X85.4907 Y31.5853
G01 X85.4922 Y31.5803
G01 X85.5847 Y31.3354
G01 X85.5869 Y31.3307
G01 X85.7118 Y31.1007
G00 Z2.0000
G00 X86.2151 Y33.7349
G01 F60.00
G01 Z-0.0000
G01 F120.00
G01 X86.5103 Y33.4397
G01 X86.6394 Y33.5170
G01 X86.7747 Y33.5810
G01 X86.9201 Y33.6333
G01 X87.0676 Y33.6702
G01 X87.2157 Y33.6922
G01 X87.3701 Y33.7000
G01 X87.5244 Y33.6922
G01 X87.6725 Y33.6702
G01 X87.8200 Y33.6333
G01 X87.9655 Y33.5810
G01 X88.1007 Y33.5170
G01 X88.2298 Y33.4397
G01 X88.5243 Y33.7342
G01 X88.4922 Y33.7600
G01 X88.4879 Y33.7629
G01 X88.2633 Y33.8973
G01 X88.2587 Y33.8997
G01 X88.0179 Y34.0024
G01 X88.0130 Y34.0041
G01 X87.7605 Y34.0732
G01 X87.7554 Y34.0742
G01 X87.4959 Y34.1084
G01 X87.4907 Y34.1087
G01 X87.2289 Y34.1073
G01 X87.2238 Y34.1069
G01 X86.9646 Y34.0701
G01 X86.9596 Y34.0690
G01 X86.7078 Y33.9973
G01 X86.7029 Y33.9955
G01 X86.4632 Y33.8903
G01 X86.4586 Y33.8879
G01 X86.2354 Y33.7511
G01 X86.2312 Y33.7481
G01 X86.2151 Y33.7349
G00 Z2.0000
G00 X86.0800 Y46.2909
G01 F60.00
G01 Z-0.0000
G01 F120.00
G01 X86.1735 Y46.1648
G01 X86.2741 Y46.0540
G01 X86.3868 Y45.9518
G01 X86.5090 Y45.8612
G01 X86.6373 Y45.7842
G01 X86.7792 Y45.7171
G01 X86.9201 Y45.6667
G01 X87.0653 Y45.6303
G01 X87.2206 Y45.6073
G01 X87.3701 Y45.6000
G01 X87.5220 Y45.6075
G01 X87.6725 Y45.6298
G01 X87.7978 Y45.6611
G01 X90.2154 Y43.2436
G01 X90.2710 Y43.1935
G01 X90.3282 Y43.1511
G01 X90.3892 Y43.1145
G01 X90.4579 Y43.0818
G01 X90.5284 Y43.0566
G01 X90.5987 Y43.0391
G01 X90.6691 Y43.0286
G01 X90.7451 Y43.0246
G01 X97.6013 Y43.0247
G01 X97.6736 Y43.0283
G01 X97.7465 Y43.0391
G01 X97.8179 Y43.0570
G01 X97.8872 Y43.0818
G01 X97.9538 Y43.1133
G01 X98.0169 Y43.1511
G01 X98.0761 Y43.1950
G01 X98.1298 Y43.2436
G01 X101.4107 Y46.5244
G01 X101.4601 Y46.5790
G01 X101.5026 Y46.6361
G01 X101.5429 Y46.7035
G01 X101.5733 Y46.7679
G01 X101.5974 Y46.8349
G01 X101.6155 Y46.9062
G01 X101.6268 Y46.9815
G01 X101.6304 Y47.0550
G01 X101.6304 Y63.8950
G01 X101.6268 Y63.9685
G01 X101.6160 Y64.0414
G01 X101.5974 Y64.1151
G01 X101.5733 Y64.1821
G01 X101.5418 Y64.2487
G01 X101.5026 Y64.3139
G01 X101.4601 Y64.3710
G01 X101.4115 Y64.4247
G01 X97.1407 Y68.6956
G01 X97.0861 Y68.7450
G01 X97.0290 Y68.7875
G01 X96.9616 Y68.8279
G01 X96.8972 Y68.8582
G01 X96.8302 Y68.8823
G01 X96.7589 Y68.9004
G01 X96.6836 Y68.9117
G01 X96.6101 Y68.9154
G01 X90.8401 Y68.9154
G01 X90.7665 Y68.9117
G01 X90.6937 Y68.9009
G01 X90.6223 Y68.8830
G01 X90.5507 Y68.8572
G01 X90.4864 Y68.8267
G01 X90.4232 Y68.7889
G01 X90.3640 Y68.7450
G01 X90.3095 Y68.6956
G01 X89.0587 Y67.4447
G01 X89.0101 Y67.3910
G01 X88.9676 Y67.3339
G01 X88.9289 Y67.2698
G01 X88.8969 Y67.2021
G01 X88.8720 Y67.1328
G01 X88.8542 Y67.0614
G01 X88.8432 Y66.9861
G01 X88.8397 Y66.9150
G01 X88.8433 Y66.8415
G01 X88.8542 Y66.7686
G01 X88.8697 Y66.7062
G01 X88.8697 Y66.0883
G01 X88.8581 Y66.0811
G01 X88.7537 Y66.0036
G01 X88.6538 Y65.9128
G01 X88.5665 Y65.8164
G01 X88.4890 Y65.7120
G01 X88.4184 Y65.5942
G01 X88.3628 Y65.4766
G01 X88.3190 Y65.3542
G01 X88.2860 Y65.2234
G01 X88.2666 Y65.0923
G01 X88.2601 Y64.9625
G01 X88.2669 Y64.8252
G01 X88.2860 Y64.6966
G01 X88.3190 Y64.5658
G01 X88.3638 Y64.4411
G01 X88.4195 Y64.3236
G01 X88.4863 Y64.2121
G01 X88.5665 Y64.1036
G01 X88.6555 Y64.0054
G01 X88.7537 Y63.9164
G01 X88.8601 Y63.8375
G01 X88.9737 Y63.7694
G01 X89.0958 Y63.7119
G01 X89.2206 Y63.6675
G01 X89.3467 Y63.6359
G01 X89.4753 Y63.6168
G01 X89.6101 Y63.6100
G01 X89.7424 Y63.6165
G01 X89.8735 Y63.6359
G01 X90.0031 Y63.6685
G01 X90.1290 Y63.7138
G01 X90.2465 Y63.7694
G01 X90.3580 Y63.8362
G01 X90.4666 Y63.9165
G01 X90.5647 Y64.0054
G01 X90.6552 Y64.1055
G01 X90.7326 Y64.2100
G01 X90.7995 Y64.3215
G01 X90.8573 Y64.4434
G01 X90.9020 Y64.5682
G01 X90.9341 Y64.6966
G01 X90.9533 Y64.8252
G01 X90.9601 Y64.9600
G01 X90.9533 Y65.0948
G01 X90.9341 Y65.2234
G01 X90.9026 Y65.3495
G01 X90.8563 Y65.4789
G01 X90.8007 Y65.5964
G01 X90.7312 Y65.7120
G01 X90.6536 Y65.8164
G01 X90.5647 Y65.9146
G01 X90.4665 Y66.0036
G01 X90.3704 Y66.0749
G01 X90.3704 Y66.6342
G01 X91.1509 Y67.4146
G01 X96.2993 Y67.4146
G01 X100.1297 Y63.5842
G01 X100.1297 Y47.3658
G01 X97.2893 Y44.5254
G01 X91.0559 Y44.5254
G01 X88.8590 Y46.7223
G01 X88.8903 Y46.8476
G01 X88.9123 Y46.9956
G01 X88.9200 Y47.1475
G01 X88.9126 Y47.3019
G01 X88.8903 Y47.4525
G01 X88.8526 Y47.6023
G01 X88.8021 Y47.7432
G01 X88.7382 Y47.8785
G01 X88.6589 Y48.0111
G01 X88.5683 Y48.1333
G01 X88.4661 Y48.2460
G01 X88.3534 Y48.3482
G01 X88.2312 Y48.4388
G01 X88.1029 Y48.5158
G01 X87.9610 Y48.5829
G01 X87.8200 Y48.6333
G01 X87.6701 Y48.6706
G01 X87.5220 Y48.6925
G01 X87.3725 Y48.6999
G01 X87.2182 Y48.6925
G01 X87.0653 Y48.6697
G01 X86.9201 Y48.6333
G01 X86.7769 Y48.5820
G01 X86.6373 Y48.5158
G01 X86.5090 Y48.4388
G01 X86.3868 Y48.3482
G01 X86.2724 Y48.2442
G01 X86.1719 Y48.1333
G01 X86.0813 Y48.0111
G01 X86.0020 Y47.8785
G01 X85.9381 Y47.7432
G01 X85.8868 Y47.5999
G01 X85.8494 Y47.4500
G01 X85.8275 Y47.3019
G01 X85.8201 Y47.1500
G01 X85.8278 Y46.9956
G01 X85.8499 Y46.8476
G01 X85.8868 Y46.7001
G01 X85.9391 Y46.5546
G01 X86.0031 Y46.4193
G01 X86.0800 Y46.2909
G00 Z2.0000
G00 X80.3200 Y46.3009
G01 F60.00
G01 Z-0.0000
G01 F120.00
G01 X80.4119 Y46.1767
G01 X80.5141 Y46.0640
G01 X80.6268 Y45.9618
G01 X80.7490 Y45.8712
G01 X80.8794 Y45.7930
G01 X81.0169 Y45.7280
G01 X81.1601 Y45.6767
G01 X81.3077 Y45.6398
G01 X81.4582 Y45.6175
G01 X81.6101 Y45.6100
G01 X81.7620 Y45.6175
G01 X81.9125 Y45.6398
G01 X82.0600 Y45.6767
G01 X82.2032 Y45.7280
G01 X82.3407 Y45.7930
G01 X82.4712 Y45.8712
G01 X82.5934 Y45.9618
G01 X82.7061 Y46.0640
G01 X82.8083 Y46.1767
G01 X82.8989 Y46.2989
G01 X82.9771 Y46.4293
G01 X83.0421 Y46.5668
G01 X83.0933 Y46.7101
G01 X83.1303 Y46.8576
G01 X83.1526 Y47.0081
G01 X83.1601 Y47.1600
G01 X83.1526 Y47.3119
G01 X83.1303 Y47.4625
G01 X83.0933 Y47.6099
G01 X83.0421 Y47.7532
G01 X82.9771 Y47.8907
G01 X82.8989 Y48.0211
G01 X82.8083 Y48.1433
G01 X82.7061 Y48.2560
G01 X82.5934 Y48.3582
G01 X82.4712 Y48.4488
G01 X82.3407 Y48.5270
G01 X82.2032 Y48.5920
G01 X82.0600 Y48.6433
G01 X81.9125 Y48.6802
G01 X81.7620 Y48.7025
G01 X81.6101 Y48.7100
G01 X81.4582 Y48.7025
G01 X81.3076 Y48.6802
G01 X81.1601 Y48.6433
G01 X81.0169 Y48.5920
G01 X80.8794 Y48.5270
G01 X80.7490 Y48.4488
G01 X80.6268 Y48.3582
G01 X80.5141 Y48.2560
G01 X80.4119 Y48.1433
G01 X80.3213 Y48.0211
G01 X80.2431 Y47.8907
G01 X80.1781 Y47.7532
G01 X80.1268 Y47.6099
G01 X80.0899 Y47.4624
G01 X80.0675 Y47.3119
G01 X80.0601 Y47.1600
G01 X80.0675 Y47.0081
G01 X80.0899 Y46.8576
G01 X80.1268 Y46.7101
G01 X80.1781 Y46.5668
G01 X80.2431 Y46.4293
G01 X80.3200 Y46.3009
G00 Z2.0000
G00 X72.8200 Y46.3009
G01 F60.00
G01 Z-0.0000
G01 F120.00
G01 X72.9119 Y46.1767
G01 X73.0141 Y46.0640
G01 X73.1268 Y45.9618
G01 X73.2490 Y45.8712
G01 X73.3794 Y45.7930
G01 X73.5169 Y45.7280
G01 X73.6601 Y45.6767
G01 X73.8077 Y45.6398
G01 X73.9582 Y45.6175
G01 X74.1101 Y45.6100
G01 X74.2620 Y45.6175
G01 X74.4125 Y45.6398
G01 X74.5600 Y45.6767
G01 X74.7032 Y45.7280
G01 X74.8407 Y45.7930
G01 X74.9712 Y45.8712
G01 X75.0934 Y45.9618
G01 X75.2061 Y46.0640
G01 X75.3083 Y46.1767
G01 X75.3989 Y46.2989
G01 X75.4771 Y46.4293
G01 X75.5421 Y46.5668
G01 X75.5933 Y46.7101
G01 X75.6303 Y46.8576
G01 X75.6526 Y47.0081
G01 X75.6601 Y47.1600
G01 X75.6526 Y47.3119
G01 X75.6303 Y47.4625
G01 X75.5933 Y47.6099
G01 X75.5421 Y47.7532
G01 X75.4771 Y47.8907
G01 X75.3989 Y48.0211
G01 X75.3083 Y48.1433
G01 X75.2061 Y48.2560
G01 X75.0934 Y48.3582
G01 X74.9712 Y48.4488
G01 X74.8407 Y48.5270
G01 X74.7032 Y48.5920
